**kern	**kern	**kern	**kern	**dynam
*part4	*part3	*part2	*part1	*part1
*staff4	*staff3	*staff2	*staff1	*
*I"Cello	*I"Viola	*I"2nd Violin	*I"1st Violin	*
*clefF4	*clefC3	*clefG2	*clefG2	*
*k[]	*k[]	*k[]	*k[]	*
*C:	*C:	*C:	*C:	*
*M2/4	*M2/4	*M2/4	*M2/4	*
8C'	8g'	8e'	8cc'	.
=1	=1	=1	=1	=1
4G'	4G'	4d'	(8bL	.
.	.	.	8ccJ	.
8r	8r	8r	8ddL)	.
8BB'	8g'	8dd'	8ff'J	.
=2	=2	=2	=2	=2
4C'	4G'	4cc'	(8eeL	.
.	.	.	8ddJ	.
4r	4r	8r	8ccL)	.
.	.	8e'	8gg'J	.
=3	=3	=3	=3	=3
2r	2r	(8aL	(8ffL	.
.	.	8gJ	8eeJ	.
.	.	8fL	8ddL	.
.	.	8f#XJ)	8ccJ)	.
=4	=4	=4	=4	=4
4r	4r	(8gL	(8bL	.
.	.	8ccJ	8eeJ	.
8r	8r	8b)	8ddL)	.
8C'	8g'	8e'	8cc'J	.
=5	=5	=5	=5	=5
4G'	4G'	4d'	(8bL	.
.	.	.	8ccJ	.
8r	8r	8r	8ddL)	.
8BB'	8g'	8dd'	8ff'J	.
=6	=6	=6	=6	=6
4C'	4G'	4cc'	(8eeL	.
.	.	.	8ddJ	.
4r	4r	8r	8ccL)	.
.	.	(8e	(8gg#XJ	.
=7	=7	=7	=7	=7
2r	2r	8f)	8aaL)	.
.	.	(8cc#XL	(8ggnJ	.
.	.	8ddJ)	8ffL)	.
.	.	(8b	(8ggnJ	.
=8	=8	=8	=8	=8
4r	4r	8ccn)	8eeL)	.
.	.	(8fL	(8ffJ	.
8r	8r	8gJ)	8ddL)	.
8F'	8B'	8d'	8g'J	.
=9	=9	=9	=9	=9
4E'	4c'	4e'	(8ccL	.
.	.	.	8bJ	.
8r	8r	8r	8ccL	.
8G'	8e'	8b-X'	8cc#XJ)	.
=10	=10	=10	=10	=10
4F'	4f'	4a'	(8ddL	.
.	.	.	8eeJ	.
8r	8r	8r	8ffL	.
8F'	8f'	8a'	8ddJ)	.
=11	=11	=11	=11	=11
8G'	8d'	8f'	8b'L	.
8r	8r	8r	8b'J	.
8G'	8d'	8f'	(16bLL	.
.	.	.	16ccn	.
8r	8r	8r	16dd	.
.	.	.	16bJJ)	.
=12	=12	=12	=12	=12
4C	4e	4e	(8ccnL	.
.	.	.	8eeJ)	.
!LO:TX:b:i:t=stacc. assai	!LO:TX:b:i:t=stacc. assai	!LO:TX:b:i:t=stacc. assai	!LO:TX:b:i:t=stacc. assai	!
8r	8r	8r	8cc'L	.
8c'	8g'	8e'	8cc'J	.
=13	=13	=13	=13	=13
8d'L	8d'L	8f'L	8b'L	.
8c'J	8e'J	8e'J	8cc'J	.
8B'L	8f'L	8d'L	8dd'L	.
8G'J	8d'J	8b'J	8ff'J	.
=14	=14	=14	=14	=14
8c'L	8e'L	8cc'L	8ee'L	.
8d'J	8b'J	8f'J	8dd'J	.
8e'L	8cc'L	8e'L	8cc'L	.
8E'J	8g'J	8c'J	8gg'J	.
=15	=15	=15	=15	=15
8A'L	8cc'L	8f'L	8ff'L	.
8G'J	8b'J	8g'J	8ee'J	.
8F'L	8a'L	8a'L	8dd'L	.
8F#X'J	8d'J	8cc'J	8cc'J	.
=16	=16	=16	=16	=16
8G'L	8g'L	8b'L	8b'L	.
8GG'J	8f#X'J	8cc'J	8ee'J	.
8G'L	8g'L	8b'L	8dd'L	.
8c'J	8g'J	8e'J	8cc'J	.
=17	=17	=17	=17	=17
8d'L	8d'L	8f'L	8b'L	.
8c'J	8e'J	8e'J	8cc'J	.
8B'L	8fn'L	8d'L	8dd'L	.
8G'J	8d'J	8b'J	8ff'J	.
=18	=18	=18	=18	=18
8c'L	8e'L	8cc'L	8ee'L	.
8d'J	8b'J	8f'J	8dd'J	.
8e'L	8cc'L	8e'L	8cc'L	.
8E'J	8ee'J	8cc'J	8gg#X'J	.
=19	=19	=19	=19	=19
8F'L	8cc'L	8a'L	8aan'L	.
8A'J	8ee'J	8cc#X'J	8gg'J	.
8d'L	8a'L	8dd'L	8ff'L	.
8B'J	8dd'J	8g'J	8gg'J	.
=20	=20	=20	=20	=20
8c'L	8g'L	8ccn'L	8ee'L	.
8F'J	8a'J	8dd'J	8ff'J	.
8G'L	8g'L	8cc'L	8dd'L	.
8F'J	8B'J	8d'J	8g'J	.
=21	=21	=21	=21	=21
8E'L	8c'L	8g'L	8cc'L	.
8F'J	8G'J	8d'J	8b'J	.
8E'L	8g'L	8c'L	8cc'L	.
8G'J	8e'J	8b-X'J	8cc#X'J	.
=22	=22	=22	=22	=22
8F'L	8f'L	8a'L	8ddn'L	.
8E'J	8g'J	8g'J	8ee'J	.
8D'L	8a'L	8f'L	8ff'L	.
8F'J	8f'J	8a'J	8dd'J	.
=23	=23	=23	=23	=23
8G'L	8d'L	8f'L	8b'L	.
8A-X'J	8c'J	8f'J	8ccn'J	.
8G'L	8d'L	8d'L	(16bLL	.
.	.	.	16cc	.
8GG'J	8f'J	8d'J	16dd	.
.	.	.	16bJJ)	.
=24	=24	=24	=24	=24
8C'L	8e'L	8e'L	8cc'L	.
8GG'J	8g'J	8e'J	8cc'J	.
4CC'	8cc'	8e'L	8cc'L	.
.	8r	8cc'J	8ccc'J	.
=25	=25	=25	=25	=25
8r	8r	(4.e	(4.ee	.
8C'L	8c'L	.	.	.
(8GG#X	(8G#X	.	.	.
8AAJ)	8AJ)	8f)	8ff)	.
=26	=26	=26	=26	=26
2EE	2E	(8f#XL	(8ff#XL	.
.	.	8gJ)	8ggJ)	.
.	.	8g'L	8gg'L	.
.	.	8cc'J	8ccc'J	.
=27	=27	=27	=27	=27
8r	8r	(4.e	(4.ee	.
8C'L	8c'L	.	.	.
(8GG#X	(8G#X	.	.	.
8AAJ)	8AJ)	8fn)	8ffn)	.
=28	=28	=28	=28	=28
2EE	2E	(8f#XL	(8ff#XL	.
.	.	8gJ)	8ggJ)	.
.	.	8g'L	8gg'L	.
.	.	8c'J	8cc'J	.
=29	=29	=29	=29	=29
8r	8r	(4c#X	(4cc#X	.
(8GGL	(8GL	.	.	.
8FFJ)	8FJ)	8dL)	8ddL)	.
8r	8r	8e'J	8ee'J	.
=30	=30	=30	=30	=30
8r	8r	(4g	(4gg	.
(8C#XL	(8c#XL	.	.	.
8DJ)	8dJ)	8fnL)	8ffnL)	.
.	.	8a'J	8aa'J	.
=31	=31	=31	=31	=31
!	!	!	!	!
8r	8r	.	.	.
(8FF#XL	(8F#XL	(4cn	(4ccn	.
8GGJ)	8GJ)	.	.	.
.	8r	8BL)	8bL)	.
.	.	8g'J	8gg'J	.
=32	=32	=32	=32	=32
8r	.	.	.	.
(8BBL	8r	.	.	.
8CJ)	(8BL	(4f	(4ff	.
8r	8cJ)	.	.	.
.	8cc'	8e)	8ee)	.
.	.	8r	8r	.
=33	=33	=33	=33	=33
2r	.	.	.	.
.	(4.e	.	.	.
.	.	4r	8r	.
.	.	.	8ccc'L	.
.	8fn)	8r	(8gg#X	.
.	.	8cc'	8aaJ)	.
=34	=34	=34	=34	=34
4r	.	.	.	.
.	(8f#XL	.	.	.
8r	8gJ)	(8ccL	(8eeL	.
8c'	8g'	8bJ)	8ddJ)	.
.	8r	8b'	8dd'	.
.	.	8r	8r	.
=35	=35	=35	=35	=35
(4.E	.	.	.	.
.	8r	.	.	.
.	8g'	8r	2r	.
8F)	(16gLL	8cc'	.	.
.	16fn	.	.	.
.	16e	(16bLL	.	.
.	16dJJ)	16a	.	.
.	.	16g	.	.
.	.	16fJJ)	.	.
=36	=36	=36	=36	=36
(8F#XL	.	.	.	.
8GJ)	(8cL	.	.	.
8G'	8BJ)	(8eL	2r	.
8r	8B'	8dJ)	.	.
.	8cc'	8d'	.	.
.	.	8r	.	.
=37	=37	=37	=37	=37
2r	.	.	.	.
.	(4.e	.	.	.
.	.	8r	8r	.
.	.	8gg'	8ccc'	.
.	8f)	(16ggLL	(16bbLL	.
.	.	16ff	16aa	.
.	.	16ee	16gg	.
.	.	16ddJJ)	16ffJJ)	.
=38	=38	=38	=38	=38
2r	.	.	.	.
.	(8f#XL	.	.	.
.	8gJ)	(8ccL	(8eeL	.
.	8g'L	8bJ)	8ddJ)	.
.	(8g#XJ	8b'L	8dd'L	.
.	.	8b'J	8ee'J	.
=39	=39	=39	=39	=39
8r	.	.	.	.
(8G#XL	4an)	.	.	.
8AJ)	.	(8bL	(8ddL	.
.	8r	8aJ)	8ccJ)	.
.	(8f#X	8a'L	8cc'L	.
.	.	8a'J	8dd'J	.
=40	=40	=40	=40	=40
8r	.	.	.	.
(8F#XL	.	.	.	.
8GJ)	4g)	.	.	.
.	.	(8aL	(8ccL	.
.	4r	8gJ)	8bJ)	.
.	.	8g'	8b'L	.
.	.	8r	8gg'J	.
=41	=41	=41	=41	=41
8r	.	.	.	.
8G'	.	.	.	.
(8EL	.	.	.	.
8AJ)	2r	.	.	.
.	.	8r	(4.b	.
.	.	8d'	.	.
.	.	(8gL	.	.
.	.	8eJ)	8cc#X)	.
=42	=42	=42	=42	=42
4D	.	.	.	.
4r	.	.	.	.
.	2r	.	.	.
.	.	(8gL	(8eeL	.
.	.	8f#XJ)	8ddnJ)	.
.	.	8f#'	8dd'L	.
.	.	.	8dd'J	.
=43	=43	=43	=43	=43
4DD	.	.	.	.
4r	.	.	.	.
.	8r	8r	.	.
.	8c'	(8AL	(4.f#X	.
.	[4D	8cJ)	.	.
.	.	.	8g)	.
=44	=44	=44	=44	=44
4DD	.	.	.	.
4r	.	8r	.	.
.	8DL]	(8AL	.	.
.	8cJ	8f#XJ)	(4g#X	.
.	[4D	.	.	.
.	.	.	8aL)	.
.	.	.	8dd'J	.
=45	=45	=45	=45	=45
4DD	.	.	.	.
.	.	8r	.	.
4r	.	(8GL	.	.
.	8DL]	8BJ)	.	.
.	8BJ	.	(4.gn	.
.	[4D	.	.	.
.	.	.	8a)	.
=46	=46	=46	=46	=46
4DD	.	8r	.	.
.	.	(8GL	.	.
4r	.	8gJ)	.	.
.	8DL]	8r	.	.
.	8BJ	.	(4a#X	.
.	[4D	.	.	.
.	.	.	8bL)	.
.	.	.	8dd'J	.
=47	=47	=47	=47	=47
4DD	.	8r	.	.
.	.	8f#X'	.	.
4r	.	(8aL	.	.
.	8DL]	8gJ)	.	.
.	8c'J	.	(4.an	.
.	(8F#XL	.	.	.
.	8GJ)	.	.	.
.	.	.	8b)	.
=48	=48	=48	=48	=48
[2DD;	.	[2f#X;	.	.
.	[2A;	.	.	.
.	.	.	2dd;	fz
=49	=49	=49	=49	=49
4.DD;]	.	4.f#;]	.	.
8r	4.A;]	8g'	.	.
.	.	.	4.cc;	.
.	8r	.	.	.
.	.	.	8r	.
=50	=50	=50	=50	=50
2r	.	8f#X'L	.	.
.	.	8g'J	.	.
.	.	8a'L	.	.
.	2r	8cc'J	.	.
.	.	.	4r	.
.	.	.	16r	.
.	.	.	16dd'LL	.
.	.	.	16ee'	.
.	.	.	16ff#X'JJ	.
=51	=51	=51	=51	=51
2r	.	8b'L	.	.
.	.	8g'J	.	.
.	.	8r	.	.
.	4r	8dd'	.	.
.	.	.	16gg'LL	.
.	.	.	16aa'	.
.	8r	.	16bb'	.
.	.	.	16ccc'JJ	.
.	8G'	.	16ddd'LL	.
.	.	.	16bb'	.
.	.	.	16aa'	.
.	.	.	16bb'JJ	.
=52	=52	=52	=52	=52
2r	.	8a'L	.	.
.	.	8b'J	.	.
.	.	16dd'LL	.	.
.	.	16cc'	.	.
.	8F#X'L	16b'	.	.
.	.	16a'JJ	.	.
.	8G'J	.	16cccLL	.
.	.	.	16bb	.
.	8A'L	.	16aa	.
.	.	.	16ggJJ	.
.	8c'J	.	16ff#XLL	.
.	.	.	16dd	.
.	.	.	16ee	.
.	.	.	16ff#JJ	.
=53	=53	=53	=53	=53
4r	.	16g'LL	.	.
.	.	16f#X'	.	.
.	.	16g'	.	.
.	.	16a'JJ	.	.
8r	.	8b'L	.	.
8GG'	8B'L	8dd'J	.	.
.	8G'J	.	16ggLL	.
.	.	.	16aa	.
.	8r	.	16bb	.
.	.	.	16cccJJ	.
.	8d'	.	16dddLL	.
.	.	.	16bb	.
.	.	.	16aa	.
.	.	.	16bbJJ	.
=54	=54	=54	=54	=54
8FF#X'L	.	4.d	.	.
8GG'J	.	.	.	.
8AA'L	.	.	.	.
8C'J	8A'L	8dd'	.	.
.	8B'J	.	16cccLL	.
.	.	.	16bb	.
.	(16dLL	.	16aa	.
.	16c	.	16ggJJ	.
.	16B	.	16ff#XLL	.
.	16AJJ)	.	16dd	.
.	.	.	16ee	.
.	.	.	16ff#JJ	.
=55	=55	=55	=55	=55
8BB'L	.	4.d	.	.
8GG'J	.	.	.	.
8r	.	.	.	.
8G'	8G'L	8b'	.	.
.	8g'J	.	16ggLL	.
.	.	.	16aa	.
.	8r	.	16bb	.
.	.	.	16aaJJ	.
.	8g'	.	16ggLL	.
.	.	.	16ff#X	.
.	.	.	16ee	.
.	.	.	16ddJJ	.
=56	=56	=56	=56	=56
4A	.	4e	.	.
8r	.	8r	.	.
8F#X'	4a	8a'	.	.
.	.	.	16cc#XLL	.
.	.	.	16bb	.
.	8r	.	16aa	.
.	.	.	16gg#XJJ	.
.	8d'	.	16aaLL	.
.	.	.	16ccn	.
.	.	.	16dd	.
.	.	.	16ccJJ	.
=57	=57	=57	=57	=57
4G	.	8b'L	.	.
.	.	8g'J	.	.
8r	.	8f#X'	.	.
8D#X'	4g	.	.	.
.	.	.	16bLL	.
.	.	.	16ggn	.
.	8r	.	16bb	.
.	.	.	16ggJJ	.
.	8b'	.	16aLL	.
.	.	.	16ff#X	.
.	.	.	16aa	.
.	.	.	16ff#JJ	.
=58	=58	=58	=58	=58
.	.	8r	.	.
4En	.	8e'L	.	.
.	.	8d'J	.	.
8r	.	.	.	.
8BB'	4B	.	.	.
.	.	.	16gLL	.
.	.	.	16ee	.
.	8r	.	16gg	.
.	.	.	16eeJJ	.
.	8g'	.	16fnLL	.
.	.	.	16dd	.
.	.	.	16ff	.
.	.	.	16ddJJ	.
=59	=59	=59	=59	=59
.	.	8r	.	.
.	.	8c'L	.	.
4C	.	8B#X'J	.	.
.	.	8r	.	.
8r	.	.	.	.
8GG#X'	4G	.	.	.
.	.	.	16eLL	.
.	.	.	16cc	.
.	8r	.	16ee	.
.	.	.	16ccJJ	.
.	8e'	.	16dLL	.
.	.	.	16b	.
.	.	.	16dd	.
.	.	.	16bJJ	.
=60	=60	=60	=60	=60
.	.	8r	.	.
.	.	8e'	.	.
4AAn	.	8a'L	.	.
.	.	8a'J	.	.
4GG	.	.	.	.
.	4E	.	.	.
.	.	.	16eLL	.
.	.	.	16cc	.
.	8r	.	16e	.
.	.	.	16ccJJ	.
.	8c'	.	16e-XLL	.
.	.	.	16cc	.
.	.	.	16e-	.
.	.	.	16ccJJ	.
=61	=61	=61	=61	=61
.	.	2a	.	.
4FF#X	.	.	.	.
16r	.	.	.	.
16D'LL	.	.	.	.
16E'	2D	.	.	.
16F#X'JJ	.	.	.	.
.	.	.	16dLL	.
.	.	.	16en	.
.	.	.	16f#X	.
.	.	.	16gJJ	.
.	.	.	16aLL	.
.	.	.	16b	.
.	.	.	16cc	.
.	.	.	16ddJJ	.
=62	=62	=62	=62	=62
.	.	4b	.	.
16G'LL	.	4r	.	.
16A'	.	.	.	.
16B'	.	.	.	.
16c'JJ	.	.	.	.
16d'LL	.	.	.	.
16B'	.	.	.	.
16A'	4G	.	.	.
16B'JJ	.	.	.	.
.	.	.	4b	.
.	8r	.	.	.
.	8d'	.	8r	.
.	.	.	8g'	.
=63	=63	=63	=63	=63
.	.	2r	.	.
16cLL	.	.	.	.
16B	.	.	.	.
16A	.	.	.	.
16GJJ	.	.	.	.
16F#XLL	.	.	.	.
16D	.	.	.	.
16E	4.D	.	.	.
16F#JJ	.	.	.	.
.	.	.	8f#X'L	.
.	.	.	8g'J	.
.	8d'	.	8a'L	.
.	.	.	8cc'J	.
=64	=64	=64	=64	=64
.	.	4r	.	.
16GLL	.	8r	.	.
16A	.	.	.	.
16B	.	8dd'	.	.
16cJJ	.	.	.	.
16dLL	.	.	.	.
16B	.	.	.	.
16A	8B'L	.	.	.
16BJJ	.	.	.	.
.	8G'J	.	4b	.
.	8r	.	.	.
.	8d'	.	8r	.
.	.	.	8gg'	.
=65	=65	=65	=65	=65
.	.	8a'L	.	.
.	.	8b'J	.	.
16cLL	.	16ddLL	.	.
16B	.	16cc	.	.
16A	.	16b	.	.
16GJJ	.	16aJJ	.	.
16F#XLL	.	.	.	.
16D	.	.	.	.
16E	4.D	.	.	.
16F#JJ	.	.	.	.
.	.	.	8ff#X'L	.
.	.	.	8gg'J	.
.	8d'	.	8aa'L	.
.	.	.	8ccc'J	.
=66	=66	=66	=66	=66
.	.	8b'L	.	.
.	.	8b'J	.	.
16GLL	.	8e'L	.	.
16F#X	.	.	.	.
16E	.	8g'J	.	.
16D#XJJ	.	.	.	.
16ELL	.	.	.	.
16Dn	.	.	.	.
16C	8G'	.	.	.
16BBJJ	.	.	.	.
.	4B	.	8bb'L	.
.	.	.	(8ff#XJ	.
.	8c'	.	8ggL)	.
.	.	.	(8dd#XJ	.
=67	=67	=67	=67	=67
.	.	8c'	.	.
.	.	4e	.	.
16CLL	.	.	.	.
16BB	.	.	.	.
16AA	.	8e'	.	.
16GG#XJJ	.	.	.	.
16AALL	.	.	.	.
16GGn	.	.	.	.
16FF#X	8r	.	.	.
16EEJJ	.	.	.	.
.	8G#XL	.	8eenL)	.
.	8B	.	8bJ	.
.	8cJ	.	16ccLL	.
.	.	.	16b	.
.	.	.	16a	.
.	.	.	16gJJ	.
=68	=68	=68	=68	=68
.	.	8a'L	.	.
.	.	8f#X'J	.	.
4.DD	.	8r	.	.
.	.	8A'	.	.
8FF#X	4c	.	.	.
.	.	.	16f#XLL	.
.	.	.	16g	.
.	4r	.	16a	.
.	.	.	16gJJ	.
.	.	.	16f#LL	.
.	.	.	16e	.
.	.	.	16d	.
.	.	.	16cJJ	.
=69	=69	=69	=69	=69
.	.	8B'L	.	.
.	.	(8BJ	.	.
4GG	.	8cL	.	.
.	.	8AJ)	.	.
4r	.	.	.	.
.	4D	.	.	.
.	.	.	(16BLL	.
.	.	.	16G)	.
.	4r	.	(16d	.
.	.	.	16GJJ)	.
.	.	.	(16eLL	.
.	.	.	16G)	.
.	.	.	(16f#X	.
.	.	.	16GJJ)	.
=70	=70	=70	=70	=70
.	.	8B'L	.	.
.	.	(8BJ	.	.
4GG	.	8cL	.	.
.	.	8AJ)	.	.
4r	.	.	.	.
.	4D	.	.	.
.	.	.	(16gLL	.
.	.	.	16G)	.
.	4r	.	(16d	.
.	.	.	16GJJ)	.
.	.	.	(16eLL	.
.	.	.	16G)	.
.	.	.	(16f#X	.
.	.	.	16GJJ)	.
=71	=71	=71	=71	=71
.	.	8B'L	.	.
.	.	8c'J	.	.
4GG	.	8d'L	.	.
.	.	8e'J	.	.
4r	.	.	.	.
.	[2G	.	.	.
.	.	.	(16gLL	.
.	.	.	16f#X)	.
.	.	.	(16a	.
.	.	.	16gJJ)	.
.	.	.	(16bLL	.
.	.	.	16a)	.
.	.	.	(16cc	.
.	.	.	16bJJ)	.
=72	=72	=72	=72	=72
.	.	8f'L	.	.
.	.	8g'J	.	.
2r	.	8a'L	.	.
.	.	8b'J	.	.
.	2G]	.	.	.
.	.	.	(16ddLL	.
.	.	.	16cc)	.
.	.	.	(16ee	.
.	.	.	16ddJJ)	.
.	.	.	(16ffnLL	.
.	.	.	16ee)	.
.	.	.	(16ff	.
.	.	.	16ddJJ)	.
=73	=73	=73	=73	=73
.	.	4cc	.	.
4C	.	8r	.	.
.	.	8g	.	.
8r	.	.	.	.
8C	4C	.	.	.
.	.	.	(16dd#XLL	.
.	.	.	16ee)	.
.	8r	.	(16dd#	.
.	.	.	16eeJJ)	.
.	8c	.	(16ff#XLL	.
.	.	.	16gg)	.
.	.	.	(16ee	.
.	.	.	16ccJJ)	.
=74	=74	=74	=74	=74
.	.	8gL	.	.
.	.	8g	.	.
8DL	.	8f#X	.	.
8D	.	8f#J	.	.
8D	.	.	.	.
8DJ	8dL	.	.	.
.	8d	.	(16bLL	.
.	.	.	16ddn)	.
.	8A	.	(16b	.
.	.	.	16gJJ)	.
.	8AJ	.	(16aLL	.
.	.	.	16cc)	.
.	.	.	(16a	.
.	.	.	16f#XJJ)	.
=75	=75	=75	=75	=75
.	.	8g'L	.	.
.	.	(8dd	.	.
16GG'LL	.	8cc#X	.	.
16G'	.	.	.	.
16GG'	.	8ddJ)	.	.
16G'JJ	.	.	.	.
16GG'LL	.	.	.	.
16G'	.	.	.	.
16GG'	8G'L	.	.	.
16G'JJ	.	.	.	.
.	(8b	.	4g	.
.	8a#X	.	.	.
.	8bJ)	.	4r	.
=76	=76	=76	=76	=76
.	.	8dd#X'	.	.
.	.	4ee^	.	.
16GGLL	.	.	.	.
16G	.	.	.	.
16GG	.	[8ddn^	.	.
16GJJ	.	.	.	.
16GGLL	.	.	.	.
16G	.	.	.	.
16GG	8b'	.	.	.
16GJJ	.	.	.	.
.	4cc^	.	2r	.
.	[8b^	.	.	.
=77	=77	=77	=77	=77
.	.	8dd]	.	.
.	.	4cc	.	.
16GGLL	.	.	.	.
16G	.	.	.	.
16GG	.	8b'	.	.
16GJJ	.	.	.	.
16GGLL	.	.	.	.
16G	.	.	.	.
16GG	8b]	.	.	.
16GJJ	.	.	.	.
.	4an	.	2r	.
.	8g'	.	.	.
=78	=78	=78	=78	=78
.	.	8a'L	.	.
.	.	8a'	.	.
[2GG	.	8a'	.	.
.	.	8a'J	.	.
.	8f#X'L	.	.	.
.	8f#'	.	8r	.
.	8f#'	.	(8cccL	.
.	8f#'J	.	8bb	.
.	.	.	8cccJ)	.
=79	=79	=79	=79	=79
.	.	8a'L	.	.
.	.	8a'	.	.
2GG_	.	8a'	.	.
.	.	8a'J	.	.
.	8f#X'L	.	.	.
.	8f#'	.	8ccc#X'	.
.	8f#'	.	4ddd^	.
.	8f#'J	.	.	.
.	.	.	[8cccn^	.
=80	=80	=80	=80	=80
.	.	8a'L	.	.
.	.	8a'	.	.
2GG]	.	8a'	.	.
.	.	8a'J	.	.
.	8f#X'L	.	.	.
.	8f#'	.	8ccc]	.
.	8f#'	.	4bb^	.
.	8f#'J	.	.	.
.	.	.	8aa'	.
=81	=81	=81	=81	=81
.	.	8b'L	.	.
.	.	(8dd	.	.
16GGLL	.	8cc#X	.	.
16G	.	.	.	.
16GG	.	8ddJ)	.	.
16GJJ	.	.	.	.
16GGLL	.	.	.	.
16G	.	.	.	.
16GG	8g'L	.	.	.
16GJJ	.	.	.	.
.	(8b	.	4gg	.
.	8a#X	.	.	.
.	8bJ)	.	4r	.
=82	=82	=82	=82	=82
.	.	8dd#X'	.	.
.	.	4ee^	.	.
16GGLL	.	.	.	.
16G	.	.	.	.
16GG	.	[8ddn^	.	.
16GJJ	.	.	.	.
16GGLL	.	.	.	.
16G	.	.	.	.
16GG	8b'	.	.	.
16GJJ	.	.	.	.
.	4cc^	.	2r	.
.	[8b^	.	.	.
=83	=83	=83	=83	=83
.	.	8dd]	.	.
.	.	4ccn^	.	.
16GGLL	.	.	.	.
16G	.	.	.	.
16GG	.	8b'	.	.
16GJJ	.	.	.	.
16GGLL	.	.	.	.
16G	.	.	.	.
16GG	8b]	.	.	.
16GJJ	.	.	.	.
.	4an^	.	2r	.
.	8g'	.	.	.
=84	=84	=84	=84	=84
.	.	8a'L	.	.
.	.	8a'	.	.
[2GG	.	8a'	.	.
.	.	8a'J	.	.
.	8f#X'L	.	.	.
.	8f#'	.	8r	.
.	8f#'	.	(8cccL	.
.	8f#'J	.	8bb	.
.	.	.	8cccJ)	.
=85	=85	=85	=85	=85
.	.	8a'L	.	.
.	.	8a'	.	.
2GG_	.	8a'	.	.
.	.	8a'J	.	.
.	8f#X'L	.	.	.
.	8f#'	.	8ccc#X	.
.	8f#'	.	4ddd^	.
.	8f#'J	.	.	.
.	.	.	[8cccn^	.
=86	=86	=86	=86	=86
.	.	8a'L	.	.
.	.	8a'	.	.
2GG_	.	8a'	.	.
.	.	8a'J	.	.
.	8f#X'L	.	.	.
.	8f#'	.	8ccc]	.
.	8f#'	.	4bb^	.
.	8f#'J	.	.	.
.	.	.	8aa'	.
=87	=87	=87	=87	=87
.	.	8b'L	.	.
.	.	(8g	.	.
8GG]	.	8f#X	.	.
(8EL	.	8gJ)	.	.
8D#X	.	.	.	.
8EJ)	8g'L	.	.	.
.	(8e	.	8gg'L	.
.	8d#X	.	(8gg	.
.	8eJ)	.	8ff#X	.
.	.	.	8ggJ)	.
=88	=88	=88	=88	=88
.	.	8fn	.	.
.	.	4e^	.	.
4A	.	.	.	.
.	.	[8e-X^	.	.
4B	.	.	.	.
.	4A	.	.	.
.	.	.	8ff	.
.	4B	.	4ee^	.
.	.	.	[8dd#X^	.
=89	=89	=89	=89	=89
.	.	8d#X	.	.
.	.	4en^	.	.
4c	.	.	.	.
.	.	(16eLL	.	.
.	.	16cJJ)	.	.
4C	.	.	.	.
.	4c	.	.	.
.	.	.	8dd#]	.
.	4A	.	4ee^	.
.	.	.	(16ccLL	.
.	.	.	16aJJ)	.
=90	=90	=90	=90	=90
.	.	4B	.	.
8DL	.	(16cLL	.	.
.	.	16B	.	.
8DJ	.	16c	.	.
.	.	16dnJJ)	.	.
8DL	.	.	.	.
8DJ	4d	.	.	.
.	.	.	4g	.
.	4F#X	.	.	.
.	.	.	8qb/	.
.	.	.	16aLL	.
.	.	.	16g	.
.	.	.	16a	.
.	.	.	16bJJ	.
=91	=91	=91	=91	=91
.	.	4.B	.	.
[2GG [2D	.	.	.	.
.	.	8d'	.	.
.	[2D [2B	.	.	.
.	.	.	4.G 4.g	f
.	.	.	8ddn'	.
=92	=92	=92	=92	=92
.	.	(8c#XL	.	.
.	.	8d	.	.
2GG_ 2D_	.	8e	.	.
.	.	8dJ)	.	.
.	2D_ 2B_	.	.	.
.	.	.	(8cc#XL	.
.	.	.	8dd	.
.	.	.	8ee	.
.	.	.	8ddJ)	.
=93	=93	=93	=93	=93
.	.	(16cnLL	.	.
.	.	16B	.	.
.	.	16A	.	.
.	.	16BJJ)	.	.
2GG_ 2D_	.	8G'L	.	.
.	.	8g'J	.	.
.	2D_ 2B_	.	.	.
.	.	.	(16ccnLL	.
.	.	.	16b	.
.	.	.	16a	.
.	.	.	16bJJ)	.
.	.	.	8g'L	.
.	.	.	8gg'J	.
=94	=94	=94	=94	=94
.	.	8f#X'L	.	.
.	.	8fn'	.	.
2GG_ 2D_	.	8e'	.	.
.	.	8e-X'J	.	.
.	2D_ 2B_	.	.	.
.	.	.	8ff#X'L	.
.	.	.	8ffn'	.
.	.	.	8ee'	.
.	.	.	8ee-X'J	.
=95	=95	=95	=95	=95
.	.	(16dLL	.	.
.	.	16en	.	.
.	.	16d	.	.
.	.	16c#XJJ)	.	.
2GG_ 2D_	.	8d'L	.	.
.	.	8d'J	.	.
.	2D_ 2B_	.	.	.
.	.	.	(16ddLL	.
.	.	.	16een	.
.	.	.	16dd	.
.	.	.	16cc#XJJ)	.
.	.	.	8ddL	.
.	.	.	8ddJ	.
=96	=96	=96	=96	=96
.	.	(8c#XL	.	.
.	.	8dJ	.	.
2GG_ 2D_	.	8eL	.	.
.	.	8dJ)	.	.
.	2D_ 2B_	.	.	.
.	.	.	(8cc#XL	.
.	.	.	8ddJ	.
.	.	.	8eeL	.
.	.	.	8ddJ)	.
=97	=97	=97	=97	=97
.	.	(16cnLL	.	.
.	.	16B	.	.
.	.	16A	.	.
.	.	16BJJ)	.	.
2GG_ 2D_	.	8G'L	.	.
.	.	8d'J	.	.
.	2D] 2B]	.	.	.
.	.	.	(16ccnLL	.
.	.	.	16b	.
.	.	.	16a	.
.	.	.	16bJJ)	.
.	.	.	8gL	.
.	.	.	8bJ	.
=98	=98	=98	=98	=98
.	.	2c 2d	.	.
2GG_ 2D_	.	.	.	.
.	2F#X 2A	.	.	.
.	.	.	8aL	.
.	.	.	8ccJ	.
.	.	.	(8dL	.
.	.	.	16eL	.
.	.	.	16f#XJJ)	.
=99	=99	=99	=99	=99
.	.	8B'L 8d	.	.
.	.	8G#X'J	.	.
2GG_ 2D_	.	8A'L	.	.
.	.	8B'J	.	.
.	2G	.	.	.
.	.	.	8gL	.
.	.	.	8g#XJ	.
.	.	.	8aL	.
.	.	.	8bJ	.
=100	=100	=100	=100	=100
.	.	2c 2d	.	.
2GG] 2D]	.	.	.	.
.	2F#X 2A	.	.	.
.	.	.	8aL	.
.	.	.	8ccJ	.
.	.	.	(8dL	.
.	.	.	16eL	.
.	.	.	16f#XJJ)	.
=101	=101	=101	=101	=101
.	.	2B 2d	.	.
8GG' 8D	.	.	.	.
4GG 4D	.	.	.	.
8GG' 8D	2G	.	.	.
.	.	.	4.G 4.gn	fz
.	.	.	8b'	.
=102	=102	=102	=102	=102
.	.	2c 2d	.	.
[2GG [2D	.	.	.	.
.	2F#X 2A	.	.	.
.	.	.	8a'L	.
.	.	.	8cc'J	.
.	.	.	(8dL	.
.	.	.	16eL	.
.	.	.	16f#XJJ)	.
=103	=103	=103	=103	=103
.	.	8B'L 8d	.	.
.	.	8G#X'J	.	.
2GG] 2D]	.	8A'L	.	.
.	.	8B'J	.	.
.	2G	.	.	.
.	.	.	8g'L	.
.	.	.	8g#X'J	.
.	.	.	8a'L	.
.	.	.	8b'J	.
=104	=104	=104	=104	=104
.	.	2c 2d	.	.
8GG' 8D	.	.	.	.
4GG' 4D	.	.	.	.
8GG' 8D	2F#X 2A	.	.	.
.	.	.	8a'L	.
.	.	.	8cc'J	.
.	.	.	(8dL	.
.	.	.	16eL	.
.	.	.	16f#XJJ)	.
=105	=105	=105	=105	=105
.	.	8B' 8d	.	.
.	.	8r	.	.
8GG' 8D	.	8B' 8d	.	.
8r	.	8r	.	.
8GG' 8D	.	.	.	.
8r	8G'	.	.	.
.	8r	.	8g'	.
.	8B'	.	8r	.
.	8r	.	8d' 8b	.
.	.	.	8r	.
=106	=106	=106	=106	=106
.	.	4B' 4d	.	.
4GG' 4D	.	8r	.	.
8r	.	.	.	.
.	.	.	4B' 4g	.
.	8r	.	.	.
=:|!|:	=:|!|:	=:|!|:	=:|!|:	=:|!|:
.	.	8r	.	.
8G'	.	.	.	.
.	8r	.	.	.
.	.	.	8r	.
=107	=107	=107	=107	=107
.	.	2r	.	.
8F#X'L	.	.	.	.
8G'J	.	.	.	.
8A'L	.	.	.	.
8c'J	4r	.	.	.
.	.	.	2r	.
.	16r	.	.	.
.	16d'LL	.	.	.
.	16e'	.	.	.
.	16f#X'JJ	.	.	.
=108	=108	=108	=108	=108
.	.	4r	.	.
8B'L	.	8r	.	.
8G'J	.	8d'	.	.
8r	.	.	.	.
8G'	16g'LL	.	.	.
.	16a'	.	.	.
.	16b'	.	2r	.
.	16cc'JJ	.	.	.
.	16dd'LL	.	.	.
.	16b'	.	.	.
.	16a'	.	.	.
.	16b'JJ	.	.	.
=109	=109	=109	=109	=109
.	.	8A'L	.	.
.	.	8B'J	.	.
8F#X'L	.	(16dLL	.	.
.	.	16c	.	.
8G'J	.	16B	.	.
.	.	16AJJ)	.	.
8A'L	.	.	.	.
8c'J	16ccLL	.	.	.
.	16b	.	.	.
.	16a	.	2r	.
.	16gJJ	.	.	.
.	16f#XLL	.	.	.
.	16d	.	.	.
.	16e	.	.	.
.	16f#JJ	.	.	.
=110	=110	=110	=110	=110
.	.	4.B	.	.
8B'	.	.	.	.
4G	.	8d'	.	.
8Fn'	16gLL	.	.	.
.	16a	.	.	.
.	16b	.	2r	.
.	16ccJJ	.	.	.
.	16ddLL	.	.	.
.	16cc	.	.	.
.	16b	.	.	.
.	16aJJ	.	.	.
=111	=111	=111	=111	=111
.	.	4d	.	.
4E	.	8B'L	.	.
.	.	8e'J	.	.
16r	.	.	.	.
16E'LL	.	.	.	.
16F#X'	16g#XLL	.	.	.
16G#X'JJ	16a	.	.	.
.	16b	.	2r	.
.	16aJJ	.	.	.
.	16g#LL	.	.	.
.	16e	.	.	.
.	16d	.	.	.
.	16BJJ	.	.	.
=112	=112	=112	=112	=112
.	.	4e	.	.
16An'LL	.	8r	.	.
16B'	.	.	.	.
16c'	.	8a'	.	.
16d'JJ	.	.	.	.
16e'LL	.	.	.	.
16c'	.	.	.	.
16B'	8c'L	.	.	.
16c'JJ	.	.	.	.
.	8A'J	.	2r	.
.	8r	.	.	.
.	8e'	.	.	.
=113	=113	=113	=113	=113
.	.	8g#X'L	.	.
.	.	8a'	.	.
16dLL	.	8b'	.	.
16c	.	.	.	.
16B	.	8dd'J	.	.
16AJJ	.	.	.	.
16G#XLL	.	.	.	.
16E	.	.	.	.
16F#X	8B'L	.	.	.
16G#JJ	.	.	.	.
.	8c'J	.	2r	.
.	(16eLL	.	.	.
.	16d	.	.	.
.	16c	.	.	.
.	16BJJ)	.	.	.
=114	=114	=114	=114	=114
.	.	8cc'L	.	.
.	.	8a'J	.	.
16AnLL	.	8r	.	.
16B	.	.	.	.
16c	.	8a'	.	.
16dJJ	.	.	.	.
16eLL	.	.	.	.
16c	.	.	.	.
16B	4c	.	.	.
16cJJ	.	.	.	.
.	.	.	2r	.
.	8r	.	.	.
.	8ee'	.	.	.
=115	=115	=115	=115	=115
.	.	8g#X'L	.	.
.	.	8a'	.	.
16dLL	.	8b'	.	.
16c	.	.	.	.
16B	.	8dd'J	.	.
16AJJ	.	.	.	.
16G#XLL	.	.	.	.
16E	.	.	.	.
16F#X	8b'L	.	.	.
16G#JJ	.	.	.	.
.	8cc'J	.	2r	.
.	16eeLL	.	.	.
.	16dd	.	.	.
.	16cc	.	.	.
.	16bJJ	.	.	.
=116	=116	=116	=116	=116
.	.	16ccLL	.	.
.	.	16b	.	.
.	.	16cc	.	.
.	.	16ddJJ	.	.
4.An	.	16eeLL	.	.
.	.	16a	.	.
.	.	16b	.	.
.	.	16cc#XJJ	.	.
8G'	8a'L	.	.	.
.	8e'J	.	2r	.
.	8c#X'L	.	.	.
.	16d'L	.	.	.
.	16e'JJ	.	.	.
=117	=117	=117	=117	=117
.	.	16ddnLL	.	.
.	.	16ee	.	.
.	.	16ff	.	.
.	.	16ggnJJ	.	.
8Fn'L	.	16aaLL	.	.
.	.	16ff	.	.
8D'J	.	16ee	.	.
.	.	16ffJJ	.	.
4r	.	.	.	.
.	4fn	.	.	.
.	.	.	2r	.
.	8r	.	.	.
.	8d'	.	.	.
=118	=118	=118	=118	=118
.	.	16ggLL	.	.
.	.	16ff	.	.
.	.	16ee	.	.
.	.	16ddJJ	.	.
2r	.	16cc#XLL	.	.
.	.	16a	.	.
.	.	16b	.	.
.	.	16cc#JJ	.	.
.	8c#X'L	.	.	.
.	8d'	.	2r	.
.	8e'	.	.	.
.	8g'J	.	.	.
=119	=119	=119	=119	=119
.	.	16ddnLL	.	.
.	.	16ee	.	.
.	.	16ff	.	.
.	.	16ggJJ	.	.
2r	.	16aaLL	.	.
.	.	16ff	.	.
.	.	16ee	.	.
.	.	16ffJJ	.	.
.	8f'L	.	.	.
.	8d'J	.	4r	.
.	8r	.	.	.
.	8d'	.	8r	.
.	.	.	8a	f
=120	=120	=120	=120	=120
.	.	16ggLL	.	.
.	.	16ff	.	.
.	.	16ee	.	.
.	.	16ddJJ	.	.
2r	.	16cc#XLL	.	.
.	.	16a	.	.
.	.	16b	.	.
.	.	16cc#JJ	.	.
.	8c#X'L	.	.	.
.	8d'J	.	8e'L	.
.	8e'L	.	8f'J	.
.	8g'J	.	(16aLL	.
.	.	.	16g	.
.	.	.	16f	.
.	.	.	16eJJ)	.
=121	=121	=121	=121	=121
.	.	16ddnLL	.	.
.	.	16ee	.	.
.	.	16ff	.	.
.	.	16ggJJ	.	.
2D	.	16aaLL	.	.
.	.	16ff	.	.
.	.	16ee	.	.
.	.	16ffJJ	.	.
.	2f	.	.	.
.	.	.	4f	.
.	.	.	4r	.
=122	=122	=122	=122	=122
.	.	16eeLL	.	.
.	.	16ff	.	.
.	.	16gg	.	.
.	.	16aaJJ	.	.
2C	.	16bb-XLL	.	.
.	.	16gg	.	.
.	.	16ee	.	.
.	.	16b-XJJ	.	.
.	2B-X 2g	.	.	.
.	.	.	4r	.
.	.	.	16r	.
.	.	.	16cc'LL	.
.	.	.	16dd'	.
.	.	.	16ee'JJ	.
=123	=123	=123	=123	=123
.	.	8a'L	.	.
.	.	8ccn'J	.	.
4F	.	8cc'L	.	.
.	.	8cc'J	.	.
8r	.	.	.	.
8F'	4c	.	.	.
.	.	.	16ff'LL	.
.	.	.	16gg'	.
.	8r	.	16aa'	.
.	.	.	16bb-X'JJ	.
.	8cc'	.	16ccc'LL	.
.	.	.	16aa'	.
.	.	.	16gg'	.
.	.	.	16aa'JJ	.
=124	=124	=124	=124	=124
.	.	2cc	.	.
8E'L	.	.	.	.
8F'J	.	.	.	.
8G'L	.	.	.	.
8B-X'J	8g'L	.	.	.
.	8a'J	.	16bb-XLL	.
.	.	.	16aa	.
.	(16ccLL	.	16gg	.
.	16b-X	.	16ffJJ	.
.	16a	.	16eeLL	.
.	16gJJ)	.	16cc	.
.	.	.	16dd	.
.	.	.	16eeJJ	.
=125	=125	=125	=125	=125
.	.	8cc	.	.
.	.	4a	.	.
8AL	.	.	.	.
8FJ	.	8cc'	.	.
4r	.	.	.	.
.	4f	.	.	.
.	.	.	16ffLL	.
.	.	.	16gg	.
.	8r	.	16aa	.
.	.	.	16bb-XJJ	.
.	8f'	.	16cccLL	.
.	.	.	16aa	.
.	.	.	16gg	.
.	.	.	16aaJJ	.
=126	=126	=126	=126	=126
.	.	8g'L	.	.
.	.	8a'J	.	.
2r	.	(16ccLL	.	.
.	.	16b-X	.	.
.	.	16a	.	.
.	.	16gJJ)	.	.
.	8e'L	.	.	.
.	8f'J	.	16bb-XLL	.
.	.	.	16aa	.
.	8g'L	.	16gg	.
.	.	.	16ffJJ	.
.	8b-X'J	.	16eeLL	.
.	.	.	16cc	.
.	.	.	16dd	.
.	.	.	16eeJJ	.
=127	=127	=127	=127	=127
.	.	8a'	.	.
.	.	4cc	.	.
(4F	.	.	.	.
.	.	8cc'	.	.
4E-X)	.	.	.	.
.	4a	.	.	.
.	.	.	16ffLL	.
.	.	.	16gg	.
.	4g	.	16aa	.
.	.	.	16bb-XJJ	.
.	.	.	16cccLL	.
.	.	.	16bb-	.
.	.	.	16aa	.
.	.	.	16ggJJ	.
=128	=128	=128	=128	=128
.	.	2cc	.	.
(4D	.	.	.	.
4F#X)	.	.	.	.
.	2a	.	.	.
.	.	.	16ff#XLL	.
.	.	.	16gg	.
.	.	.	16ff#	.
.	.	.	16eeJJ	.
.	.	.	16ddLL	.
.	.	.	16ccc	.
.	.	.	16bb-X	.
.	.	.	16aaJJ	.
=129	=129	=129	=129	=129
.	.	8b-X'	.	.
.	.	4dd	.	.
(4G	.	.	.	.
.	.	8dd'	.	.
4Fn)	.	.	.	.
.	4d	.	.	.
.	.	.	16ggLL	.
.	.	.	16aa	.
.	4a	.	16bb-X	.
.	.	.	16cccJJ	.
.	.	.	16dddLL	.
.	.	.	16ccc	.
.	.	.	16bbn	.
.	.	.	16aaJJ	.
=130	=130	=130	=130	=130
.	.	2dd	.	.
(4E	.	.	.	.
4G#X)	.	.	.	.
.	2bn	.	.	.
.	.	.	16gg#XLL	.
.	.	.	16aa	.
.	.	.	16gg#	.
.	.	.	16ff#XJJ	.
.	.	.	16eeLL	.
.	.	.	16ddd	.
.	.	.	16ccc	.
.	.	.	16bbJJ	.
=131	=131	=131	=131	=131
.	.	4cc	.	.
(4An	.	4dd#X	.	.
4G)	.	.	.	.
.	4e	.	.	.
.	.	.	16cccLL	.
.	.	.	16ddd	.
.	4a	.	16ccc	.
.	.	.	16bbJJ	.
.	.	.	16aaLL	.
.	.	.	16ccc	.
.	.	.	16bb	.
.	.	.	16aaJJ	.
=132	=132	=132	=132	=132
.	.	4ee	.	.
[2E	.	(4g#X	.	.
.	4b	.	.	.
.	.	.	16gg#XLL	.
.	.	.	16aa	.
.	8dL	.	16gg#	.
.	.	.	16ff#XJJ	.
.	8BJ	.	16eeLL	.
.	.	.	16ffn	.
.	.	.	16ee	.
.	.	.	16ddJJ	.
=133	=133	=133	=133	=133
.	.	4a)	.	.
2E_	.	4d#X	.	.
.	2c	.	.	.
.	.	.	16ccLL	.
.	.	.	16dd	.
.	.	.	16cc	.
.	.	.	16bJJ	.
.	.	.	16aLL	.
.	.	.	16cc	.
.	.	.	16b	.
.	.	.	16aJJ	.
=134	=134	=134	=134	=134
.	.	[4en	.	.
4E_	.	16eLL]	.	.
.	.	16f'	.	.
.	.	16e'	.	.
.	.	16d'JJ	.	.
16ELL]	.	.	.	.
16F'	.	.	.	.
16E'	[4e	.	.	.
16D'JJ	.	.	.	.
.	.	.	16g#XLL	.
.	.	.	16a	.
.	16eLL]	.	16g#	.
.	16f'	.	16f#XJJ	.
.	16e'	.	16eLL	.
.	16d'JJ	.	16fn	.
.	.	.	16e	.
.	.	.	16dJJ	.
=135	=135	=135	=135	=135
.	.	16c'LL	.	.
.	.	16d'	.	.
.	.	16c'	.	.
.	.	16Bn'JJ	.	.
16C'LL	.	16A'LL	.	.
16D'	.	16c'	.	.
16C'	.	16B'	.	.
16BB'JJ	.	16A'JJ	.	.
16AA'LL	.	.	.	.
16C'	.	.	.	.
16BB'	16c'LL	.	.	.
16AA'JJ	16d'	.	.	.
.	16c'	.	16cLL	.
.	16B'JJ	.	16d	.
.	16A'LL	.	16c	.
.	16c'	.	16BnJJ	.
.	16B'	.	16ALL	.
.	16A'JJ	.	16c	.
.	.	.	16B	.
.	.	.	16AJJ	.
=136	=136	=136	=136	=136
.	.	8e'L	.	.
.	.	(8e	.	.
8EE'L	.	8d#X	.	.
8E'	.	8eJ)	.	.
8EE'	.	.	.	.
8E'J	8e'	.	.	.
.	(8cL	.	4e	.
.	8B	.	.	.
.	8cJ)	.	4r	.
=137	=137	=137	=137	=137
.	.	8e'	.	.
.	.	4f^	.	.
8EEL	.	.	.	.
8E	.	[8e^	.	.
8EE	.	.	.	.
8EJ	8c#X'	.	.	.
.	4d^	.	2r	.
.	[8cn^	.	.	.
=138	=138	=138	=138	=138
.	.	8e]	.	.
.	.	4d^	.	.
8EEL	.	.	.	.
8E	.	8c#X'	.	.
8EE	.	.	.	.
8EJ	8c]	.	.	.
.	4B^	.	2r	.
.	8A#X'	.	.	.
=139	=139	=139	=139	=139
.	.	8d'	.	.
.	.	8dL	.	.
8EEL	.	8c#X	.	.
8E	.	8dJ	.	.
8EE	.	.	.	.
8EJ	8B'	.	.	.
.	8BL	.	2r	.
.	8A#X	.	.	.
.	8BJ	.	.	.
=140	=140	=140	=140	=140
.	.	8d#X'	.	.
.	.	4e^	.	.
8EEL	.	.	.	.
8E	.	[8dn^	.	.
8EE	.	.	.	.
8EJ	8B'	.	.	.
.	4c^	.	2r	.
.	[8B^	.	.	.
=141	=141	=141	=141	=141
.	.	8d]	.	.
.	.	4c^	.	.
8EEL	.	.	.	.
8E	.	8B'	.	.
8EE	.	.	.	.
8EJ	8B]	.	.	.
.	4A^	.	2r	.
.	8G#X'	.	.	.
=142	=142	=142	=142	=142
.	.	8c'L	.	.
.	.	(8cc	.	.
[2EE	.	8b	.	.
.	.	8ccJ)	.	.
.	4An	.	.	.
.	.	.	8r	.
.	4r	.	(8eeL	.
.	.	.	8dd#X	p
.	.	.	8eeJ)	.
=143	=143	=143	=143	=143
.	.	8cc#X'	.	.
.	.	4dd^	.	.
2EE_	.	.	.	.
.	.	[8ccn^	.	.
.	8r	.	.	.
.	(8AL	.	8ee'	.
.	8G#X	.	4ff^	.
.	8AJ)	.	.	.
.	.	.	[8ee^	.
=144	=144	=144	=144	=144
.	.	8cc]	.	.
.	.	4b^	.	.
2EE_	.	.	.	.
.	.	8a#X'	.	.
.	4B	.	.	.
.	.	.	8ee]	.
.	4fn	.	4dd^	.
.	.	.	8cc#X'	.
=145	=145	=145	=145	=145
.	.	8b'	.	.
.	.	(8bL	.	.
2EE_	.	8a#X	.	.
.	.	8bJ)	.	.
.	2e	.	.	.
.	.	.	8dd'L	.
.	.	.	(8dd	.
.	.	.	8cc#X	.
.	.	.	8ddJ)	.
=146	=146	=146	=146	=146
.	.	8b'	.	.
.	.	4cc^	.	.
2EE_	.	.	.	.
.	.	[8b^	.	.
.	8r	.	.	.
.	(8G#XL	.	8dd#X'	.
.	8F#X	.	4ee^	.
.	8G#J)	.	.	.
.	.	.	[8ddn^	.
=147	=147	=147	=147	=147
.	.	8b]	.	.
.	.	4a^	.	.
2EE]	.	.	.	.
.	.	8a-X'	.	.
.	4An	.	.	.
.	.	.	8dd]	.
.	4B	.	4ccn^	.
.	.	.	8b'	.
=148	=148	=148	=148	=148
.	.	8a'	.	.
.	.	8aL	.	.
[2AA	.	8g#X	.	.
.	.	8aJ	.	.
.	8A'L	.	.	.
.	(8fn	.	2cc	.
.	8e	.	.	.
.	8fJ)	.	.	.
=149	=149	=149	=149	=149
.	.	8gn'	.	.
.	.	4b-X^	.	.
2AA_	.	.	.	.
.	.	[8a^	.	.
.	8e'	.	.	.
.	4g^	.	4cc#X^	.
.	[8f^	.	4dd^	.
=150	=150	=150	=150	=150
.	.	8a]	.	.
.	.	4g^	.	.
4.AA]	.	.	.	.
.	.	[8f^	.	.
8AA-X'	8f]	.	.	.
.	4e^	.	4ee^	.
.	[8d^	.	4ff^	.
=151	=151	=151	=151	=151
.	.	8fL]	.	.
.	.	(8f	.	.
[2GG	.	8e	.	.
.	.	8fJ)	.	.
.	8dL]	.	.	.
.	(8d	.	2ccn	.
.	8c#X	.	.	.
.	8dJ)	.	.	.
=152	=152	=152	=152	=152
.	.	8g	.	.
.	.	4a-X^	.	.
2GG_	.	.	.	.
.	.	[8g^	.	.
.	8e	.	.	.
.	4f^	.	4b^	.
.	[8e^	.	4cc^	.
=153	=153	=153	=153	=153
.	.	8g]	.	.
.	.	4f^	.	.
2GG]	.	.	.	.
.	.	8e'	.	.
.	8e]	.	.	.
.	4d^	.	4dd^	.
.	[8cn	.	[4ee^	.
=154	=154	=154	=154	=154
.	.	2an	.	.
4.FF	.	.	.	.
8FF#X'	8cL]	.	.	.
.	16f'L	.	8eeL]	.
.	16e'JJ	.	.	.
.	8d'L	.	8a'	.
.	8d'J	.	8dd'	.
.	.	.	8cc'J	.
=155	=155	=155	=155	=155
.	.	4g	.	.
4GG'	.	8r	.	.
.	.	8dd'	.	.
8r	.	.	.	.
8BB'	4d	.	.	.
.	.	.	(8bL	.
.	8r	.	8cc	.
.	8g'	.	8dd)	.
.	.	.	8ff'J	.
=156	=156	=156	=156	=156
.	.	4cc'	.	.
4C'	.	8r	.	.
.	.	8e'	.	.
4r	.	.	.	.
.	4G'	.	.	.
.	.	.	(8eeL	.
.	4r	.	8dd	.
.	.	.	8cc)	.
.	.	.	8gg'J	.
=157	=157	=157	=157	=157
.	.	(8aL	.	.
.	.	8g	.	.
2r	.	8f	.	.
.	.	8f#XJ)	.	.
.	2r	.	.	.
.	.	.	(8ffL	.
.	.	.	8ee	.
.	.	.	8dd	.
.	.	.	8ccJ)	.
=158	=158	=158	=158	=158
.	.	(8gL	.	.
.	.	8ccJ	.	.
4r	.	8b)	.	.
.	.	8e'	.	.
8r	.	.	.	.
8C'	4r	.	.	.
.	.	.	(8bL	.
.	8r	.	8ee	.
.	8g'	.	8dd)	.
.	.	.	8cc'J	.
=159	=159	=159	=159	=159
.	.	4d'	.	.
4G'	.	8r	.	.
.	.	8dd'	.	.
8r	.	.	.	.
8BB'	4G'	.	.	.
.	.	.	(8bL	.
.	8r	.	8cc	.
.	8g'	.	8dd)	.
.	.	.	8ff'J	.
=160	=160	=160	=160	=160
.	.	4cc'	.	.
4C'	.	8r	.	.
.	.	(8e	.	.
4r	.	.	.	.
.	4G'	.	.	.
.	.	.	(8eeL	.
.	4r	.	8dd	.
.	.	.	8cc)	.
.	.	.	(8gg#XJ	.
=161	=161	=161	=161	=161
.	.	8f)	.	.
.	.	(8cc#XL	.	.
2r	.	8ddJ)	.	.
.	.	(8b	.	.
.	2r	.	.	.
.	.	.	8aaL)	.
.	.	.	(8ggn	.
.	.	.	8ff)	.
.	.	.	(8ggJ	.
=162	=162	=162	=162	=162
.	.	8cc)	.	.
.	.	(8fL	.	.
4r	.	8gJ)	.	.
.	.	8d'	.	.
8r	.	.	.	.
8F'	4r	.	.	.
.	.	.	8eeL)	.
.	8r	.	(8ff	.
.	8B'	.	8dd)	.
.	.	.	8g'J	.
=163	=163	=163	=163	=163
.	.	4e	.	.
4E	.	8r	.	.
.	.	8b-X'	.	.
8r	.	.	.	.
8G'	4c	.	.	.
.	.	.	(8ccL	.
.	8r	.	8b	.
.	8e'	.	8cc)	.
.	.	.	8cc#X'J	.
=164	=164	=164	=164	=164
.	.	4a'	.	.
4F'	.	8r	.	.
.	.	8a'	.	.
8r	.	.	.	.
8F'	4f'	.	.	.
.	.	.	(8ddnL	.
.	8r	.	8ee	.
.	8f'	.	8ff)	.
.	.	.	8dd'J	.
=165	=165	=165	=165	=165
.	.	8f'	.	.
.	.	8r	.	.
8G'	.	8f'	.	.
8r	.	8r	.	.
8G'	.	.	.	.
8r	8d'	.	.	.
.	8r	.	8b'L	.
.	8d'	.	8cc'J	.
.	8r	.	(16bLL	.
.	.	.	16cc	.
.	.	.	16dd	.
.	.	.	16bJJ)	.
=166	=166	=166	=166	=166
.	.	4e	.	.
4C	.	8r	.	.
.	.	8cc'	.	.
4r	.	.	.	.
.	4e	.	.	.
.	.	.	(8ccL	.
.	4r	.	8eeJ)	.
.	.	.	8cc'	.
.	.	.	8ccc'	f
=167	=167	=167	=167	=167
.	.	(4.e	.	.
8r	.	.	.	.
8C'	.	8f)	.	.
(8GG#XL	.	.	.	.
8AAJ)	8r	.	.	.
.	8c'	.	(4.ee	.
.	(8G#XL	.	.	.
.	8AJ)	.	.	.
.	.	.	8ff)	.
=168	=168	=168	=168	=168
.	.	8f#XL	.	.
.	.	8gJ	.	.
2EE	.	8g'L	.	.
.	.	8cc'J	.	.
.	2E	.	.	.
.	.	.	(8ff#XL	.
.	.	.	8ggJ)	.
.	.	.	8gg'L	.
.	.	.	8ccc'J	.
=169	=169	=169	=169	=169
.	.	(4.e	.	.
8r	.	.	.	.
8C'	.	8fn)	.	.
(8GG#XL	.	.	.	.
8AAJ)	8r	.	.	.
.	8c'	.	(4.ee	.
.	(8G#XL	.	.	.
.	8AJ)	.	.	.
.	.	.	8ffn)	.
=170	=170	=170	=170	=170
.	.	(8f#XL	.	.
.	.	8gJ)	.	.
4EE	.	8g'	.	.
.	.	8r	.	.
8r	.	.	.	.
8E'	4E	.	.	.
.	.	.	(8ff#XL	.
.	8r	.	8ggJ)	.
.	8c'	.	8gg'	.
.	.	.	8r	.
=171	=171	=171	=171	=171
.	.	(8g#XL	.	.
.	.	8aJ)	.	.
4F'	.	8a'	.	.
.	.	8r	.	.
8r	.	.	.	.
8F'	4c'	.	.	.
.	.	.	(8gg#XL	.
.	8r	.	8aaJ)	.
.	8c'	.	8aa'	.
.	.	.	8r	.
=172	=172	=172	=172	=172
.	.	(8aL	.	.
.	.	8b-XJ)	.	.
4E'	.	8b-'	.	.
.	.	8r	.	.
8r	.	.	.	.
8E'	4c'	.	.	.
.	.	.	(8aaL	.
.	8r	.	8bb-XJ)	.
.	8c'	.	8bb-'	.
.	.	.	8r	.
=173	=173	=173	=173	=173
.	.	(8b-XL	.	.
.	.	8aJ)	.	.
4F'	.	8a'	.	.
.	.	8r	.	.
8r	.	.	.	.
8F'	4c'	.	.	.
.	.	.	(8bb-XL	.
.	8r	.	8aaJ)	.
.	8c'	.	8aa'	.
.	.	.	8r	.
=174	=174	=174	=174	=174
.	.	(8bnL	.	.
.	.	8ccJ)	.	.
4F#X	.	8cc'	.	.
.	.	8r	.	.
8r	.	.	.	.
8F#'	4e-X	.	.	.
.	.	.	(8bbnL	.
.	8r	.	8cccJ)	.
.	8e-'	.	8ccc'	.
.	.	.	8r	.
=175	=175	=175	=175	=175
.	.	(8ccL	.	.
.	.	8bJ)	.	.
4G'	.	8b'L	.	.
.	.	8cc'J	.	.
8r	.	.	.	.
8F#X'	(8e-XL	.	.	.
.	8dJ)	.	(8cccL	.
.	8d'L	.	8bbJ)	.
.	8e-'J	.	8bb'L	.
.	.	.	8ccc'J	.
=176	=176	=176	=176	=176
.	.	(8ccL	.	.
.	.	8bJ)	.	.
4G	.	8b'	.	.
.	.	8r	.	.
4r	.	.	.	.
.	(8e-XL	.	.	.
.	8dJ)	.	(8cccL	.
.	8d'	.	8bbJ)	.
.	8r	.	8bb'	.
.	.	.	8g'	p
=177	=177	=177	=177	=177
.	.	2r	.	.
8r	.	.	.	.
8Fn'	.	.	.	.
[4GG	.	.	.	.
.	8r	.	.	.
.	(8DL	.	(4.B	.
.	8FJ)	.	.	.
.	8r	.	.	.
.	.	.	8c)	.
=178	=178	=178	=178	=178
.	.	2r	.	.
8GGL]	.	.	.	.
8F'J	.	.	.	.
[4GG	.	.	.	.
.	8r	.	.	.
.	(8DL	.	(4c#X	.
.	8BJ)	.	.	.
.	8r	.	8dL)	.
.	.	.	8gJ	.
=179	=179	=179	=179	=179
.	.	2r	.	.
8GGL]	.	.	.	.
8E'J	.	.	.	.
[4GG	.	.	.	.
.	8r	.	.	.
.	(8CL	.	(4.cn	.
.	8EJ)	.	.	.
.	8r	.	.	.
.	.	.	8d)	.
=180	=180	=180	=180	=180
.	.	2r	.	.
8GGL]	.	.	.	.
8E'J	.	.	.	.
[4GG	.	.	.	.
.	8r	.	.	.
.	(8CL	.	(4d#X	.
.	8cJ)	.	.	.
.	8r	.	8eL)	.
.	.	.	8g'J	.
=181	=181	=181	=181	=181
.	.	8r	.	.
.	.	8B'L	.	.
8GGL]	.	8d'	.	.
8BB'	.	8c'J	.	.
8GG'	.	.	.	.
8GG'J	8r	.	.	.
.	8G'L	.	(4.dn	.
.	8F'	.	.	.
.	8E'J	.	.	.
.	.	.	8e)	.
=182	=182	=182	=182	=182
.	.	[2B;	.	.
[2GG;	.	.	.	.
.	[2D;	.	.	.
.	.	.	(2g;	.
=183	=183	=183	=183	=183
.	.	4.B;]	.	.
4.GG;]	.	.	.	.
.	.	8c'	.	.
8r	4.D;]	.	.	.
.	.	.	4.f;)	.
.	8r	.	.	.
.	.	.	8r	.
=184	=184	=184	=184	=184
.	.	8B'L	.	.
.	.	8c'J	.	.
2r	.	8d'L	.	.
.	.	8f'J	.	.
.	2r	.	.	.
.	.	.	4r	.
.	.	.	16r	.
.	.	.	16g'LL	f
.	.	.	16a'	.
.	.	.	16b'JJ	.
=185	=185	=185	=185	=185
.	.	8eL	.	.
.	.	8cJ	.	.
2r	.	8r	.	.
.	.	8g'	.	.
.	4r	.	.	.
.	.	.	16ccLL	.
.	.	.	16dd	.
.	8r	.	16ee	.
.	.	.	16ffJJ	.
.	8c'	.	16ggLL	.
.	.	.	16ee	.
.	.	.	16dd	.
.	.	.	16eeJJ	.
=186	=186	=186	=186	=186
.	.	8d'L	.	.
.	.	8e'J	.	.
.	.	16qqg/	.	.
2r	.	(8fL	.	.
.	.	16eL	.	.
.	.	16dJJ)	.	.
.	8B'L	.	.	.
.	8c'J	.	16ffLL	.
.	.	.	16ee	.
.	8d'L	.	16dd	.
.	.	.	16ccJJ	.
.	8f'J	.	16bLL	.
.	.	.	16g	.
.	.	.	16a	.
.	.	.	16bJJ	.
=187	=187	=187	=187	=187
.	.	16cLL	.	.
.	.	16B	.	.
.	.	16c	.	.
.	.	16dJJ	.	.
4r	.	8eL	.	.
.	.	8gJ	.	.
8r	.	.	.	.
8C'	8e'L	.	.	.
.	8c'J	.	16ccLL	.
.	.	.	16dd	.
.	8r	.	16ee	.
.	.	.	16ffJJ	.
.	8g'	.	16ggLL	.
.	.	.	16ee	.
.	.	.	16dd	.
.	.	.	16eeJJ	.
=188	=188	=188	=188	=188
.	.	4G	.	.
8BB'L	.	8r	.	.
8C'J	.	8g'	.	.
8D'L	.	.	.	.
8F'J	8d'L	.	.	.
.	8e'J	.	16ffLL	.
.	.	.	16ee	.
.	16qqg/	.	.	.
.	(8fL	.	16dd	.
.	.	.	16ccJJ	.
.	16eL	.	16bLL	.
.	16dJJ)	.	16g	.
.	.	.	16a	.
.	.	.	16bJJ	.
=189	=189	=189	=189	=189
.	.	4G	.	.
8E'L	.	8r	.	.
8C'J	.	8e'	.	.
8r	.	.	.	.
8C'	8c'L	.	.	.
.	8c'J	.	16ccLL	.
.	.	.	16dd	.
.	8r	.	16ee	.
.	.	.	16ddJJ	.
.	8c'	.	16ccLL	.
.	.	.	16b	.
.	.	.	16a	.
.	.	.	16gJJ	.
=190	=190	=190	=190	=190
.	.	4A	.	.
4D	.	8r	.	.
.	.	8d'	.	.
8r	.	.	.	.
8BB'	4d	.	.	.
.	.	.	16f#XLL	.
.	.	.	16ee	.
.	8r	.	16dd	.
.	.	.	16cc#XJJ	.
.	8G'	.	16ddLL	.
.	.	.	16fn	.
.	.	.	16g	.
.	.	.	16fJJ	.
=191	=191	=191	=191	=191
.	.	8e'L	.	.
.	.	8e'J	.	.
8C'L	.	8f'L	.	.
8C'J	.	8f'J	.	.
8C'L	.	.	.	.
8C'J	8c'L	.	.	.
.	8c'J	.	16eLL	.
.	.	.	16ccn	.
.	8d'L	.	16ee	.
.	.	.	16ccJJ	.
.	8d'J	.	16fLL	.
.	.	.	16dd	.
.	.	.	16ff	.
.	.	.	16ddJJ	.
=192	=192	=192	=192	=192
.	.	8g'L	.	.
.	.	8g'J	.	.
8C'L	.	8a'L	.	.
8C'J	.	8a'J	.	.
8C'L	.	.	.	.
8C'J	8e'L	.	.	.
.	8e'J	.	16gLL	.
.	.	.	16ee	.
.	8f'L	.	16gg	.
.	.	.	16eeJJ	.
.	8f'J	.	16aLL	.
.	.	.	16ff	.
.	.	.	16aa	.
.	.	.	16ffJJ	.
=193	=193	=193	=193	=193
.	.	(16b-XLL	.	.
.	.	16ee)	.	.
.	.	(16gg	.	.
.	.	16eeJJ)	.	.
8CL	.	(16ggLL	.	.
.	.	16ee)	.	.
8C	.	(16gg	.	.
.	.	16eeJJ)	.	.
8C	.	.	.	.
8CJ	8gL	.	.	.
.	8e	.	(16b-XLL	.
.	.	.	16gg)	.
.	8c#X	.	(16bb-X	.
.	.	.	16ggJJ)	.
.	8EJ	.	(16bb-LL	.
.	.	.	16gg)	.
.	.	.	(16bb-	.
.	.	.	16ggJJ)	.
=194	=194	=194	=194	=194
.	.	(16aLL	.	.
.	.	16ee)	.	.
.	.	(16gg	.	.
.	.	16eeJJ)	.	.
8C#XL	.	(16ggLL	.	.
.	.	16ee)	.	.
8C#	.	(16gg	.	.
.	.	16eeJJ)	.	.
8C#	.	.	.	.
8C#J	8gL	.	.	.
.	8e	.	(16aLL	.
.	.	.	16gg)	.
.	8d	.	(16aa	.
.	.	.	16ggJJ)	.
.	8AJ	.	(16aaLL	.
.	.	.	16gg)	.
.	.	.	(16aa	.
.	.	.	16ggJJ)	.
=195	=195	=195	=195	=195
.	.	(16aLL	.	.
.	.	16dd)	.	.
.	.	(16ff	.	.
.	.	16ddJJ)	.	.
8DL	.	(16ffLL	.	.
.	.	16dd)	.	.
8D	.	(16ff	.	.
.	.	16ddJJ)	.	.
8D	.	.	.	.
8DJ	8fL	.	.	.
.	8d	.	(16aLL	.
.	.	.	16ff)	.
.	8A	.	(16aa	.
.	.	.	16ffJJ)	.
.	8FJ	.	(16aaLL	.
.	.	.	16ff)	.
.	.	.	(16aa	.
.	.	.	16ffJJ)	.
=196	=196	=196	=196	=196
.	.	(16gLL	.	.
.	.	16dd)	.	.
.	.	(16ff	.	.
.	.	16ddJJ)	.	.
8BBL	.	(16gLL	.	.
.	.	16dd)	.	.
8BB	.	16ff	.	.
.	.	16ddJJ	.	.
8BB	.	.	.	.
8BBJ	8fL	.	.	.
.	8d	.	(16ddLL	.
.	.	.	16ff)	.
.	8B	.	(16gg	.
.	.	.	16ffJJ)	.
.	8GJ	.	(16ddLL	.
.	.	.	16ff)	.
.	.	.	(16gg	.
.	.	.	16ffJJ)	.
=197	=197	=197	=197	=197
.	.	(16gLL	.	.
.	.	16cc)	.	.
.	.	(16ee	.	.
.	.	16ccJJ)	.	.
8CL	.	(16eeLL	.	.
.	.	16cc)	.	.
8C	.	(16ee	.	.
.	.	16ccJJ)	.	.
8C	.	.	.	.
8CJ	8eL	.	.	.
.	8c	.	(16ccLL	.
.	.	.	16ee)	.
.	8G	.	(16gg	.
.	.	.	16eeJJ)	.
.	8EJ	.	(16ggLL	.
.	.	.	16ee)	.
.	.	.	(16gg	.
.	.	.	16eeJJ)	.
=198	=198	=198	=198	=198
.	.	16ff#XLL	.	.
.	.	16cc	.	.
.	.	16a	.	.
.	.	16ccJJ	.	.
8AAL	.	16ff#LL	.	.
.	.	16aa	.	.
8AA	.	16ff#	.	.
.	.	16ccJJ	.	.
8AA	.	.	.	.
8AAJ	8ccL	.	.	.
.	8f#X	.	16ff#XLL	.
.	.	.	16aa	.
.	8a	.	16ccc	.
.	.	.	16aaJJ	.
.	8dJ	.	16ff#LL	.
.	.	.	16ccc	.
.	.	.	16aa	.
.	.	.	16ff#JJ	.
=199	=199	=199	=199	=199
.	.	4b	.	.
4GG	.	4r	.	.
16r	.	.	.	.
16GG'LL	.	.	.	.
16AA'	4g	.	.	.
16BB'JJ	.	.	.	.
.	.	.	16ggLL	.
.	.	.	16ff#X	.
.	16r	.	16gg	.
.	16B'LL	.	16aaJJ	.
.	16c'	.	16ggLL	.
.	16d'JJ	.	16ffn	.
.	.	.	16ee	.
.	.	.	16ddJJ	.
=200	=200	=200	=200	=200
.	.	2r	.	.
16CLL	.	.	.	.
16D	.	.	.	.
16E	.	.	.	.
16FJJ	.	.	.	.
16GLL	.	.	.	.
16E	.	.	.	.
16D	4e	.	.	.
16EJJ	.	.	.	.
.	.	.	4cc	.
.	8r	.	.	.
.	8g'	.	8r	.
.	.	.	8cc'	.
=201	=201	=201	=201	=201
.	.	2r	.	.
16FLL	.	.	.	.
16E	.	.	.	.
16D	.	.	.	.
16CJJ	.	.	.	.
16BBLL	.	.	.	.
16GG	.	.	.	.
16AA	4.G	.	.	.
16BBJJ	.	.	.	.
.	.	.	8b'L	.
.	.	.	8cc'	.
.	8g'	.	8dd'	.
.	.	.	8ff'J	.
=202	=202	=202	=202	=202
.	.	4r	.	.
16CLL	.	8r	.	.
16D	.	.	.	.
16E	.	8gg'	.	.
16FJJ	.	.	.	.
16GLL	.	.	.	.
16E	.	.	.	.
16D	8e'L	.	.	.
16EJJ	.	.	.	.
.	8c'J	.	4ee	.
.	8r	.	.	.
.	8g'	.	8r	.
.	.	.	8ccc'	.
=203	=203	=203	=203	=203
.	.	8dd'L	.	.
.	.	8ee'J	.	.
16FLL	.	(16ggLL	.	.
16E	.	16ff	.	.
16D	.	16ee	.	.
16CJJ	.	16ddJJ)	.	.
16BBLL	.	.	.	.
16G	.	.	.	.
16A	4.G	.	.	.
16BJJ	.	.	.	.
.	.	.	8bb'L	.
.	.	.	8ccc'	.
.	8g'	.	8ddd'	.
.	.	.	8fff'J	.
=204	=204	=204	=204	=204
.	.	8ee'L	.	.
.	.	8ee'J	.	.
16cLL	.	8a'L	.	.
16B	.	.	.	.
16A	.	8cc'J	.	.
16G#XJJ	.	.	.	.
16ALL	.	.	.	.
16Gn	.	.	.	.
16F	8c'	.	.	.
16EJJ	.	.	.	.
.	4e	.	8eee'L	.
.	.	.	(8bb	.
.	8f'	.	8ccc)	.
.	.	.	(8gg#XJ	.
=205	=205	=205	=205	=205
.	.	8f'	.	.
.	.	4a	.	.
16FLL	.	.	.	.
16E	.	.	.	.
16D	.	8a'	.	.
16C#XJJ	.	.	.	.
16DLL	.	.	.	.
16Cn	.	.	.	.
16C	8r	.	.	.
16AAJJ	.	.	.	.
.	8c#X'L	.	8aanL)	.
.	8d'	.	8ee'J	.
.	8f'J	.	16ffLL	.
.	.	.	16ee	.
.	.	.	16dd	.
.	.	.	16ccJJ	.
=206	=206	=206	=206	=206
.	.	8dd'L	.	.
.	.	8b'J	.	.
4.GG	.	8r	.	.
.	.	8d'	.	.
8BB'	4f	.	.	.
.	.	.	16bLL	.
.	.	.	16cc	.
.	8r	.	16dd	.
.	.	.	16ccJJ	.
.	8g'	.	16bLL	.
.	.	.	16a	.
.	.	.	16g	.
.	.	.	16fJJ	.
=207	=207	=207	=207	=207
.	.	8e'L	.	.
.	.	8g'J	.	.
8C'L	.	8a'L	.	.
8E'	.	8dd'J	.	.
8F'	.	.	.	.
8F'J	8g'L	.	.	.
.	8c'	.	16eLL	.
.	.	.	16g	.
.	8c'	.	16cc	.
.	.	.	16bJJ	.
.	8a'J	.	16aLL	.
.	.	.	16aa	.
.	.	.	16gg	.
.	.	.	16ffJJ	.
=208	=208	=208	=208	=208
.	.	8cc'L	.	.
.	.	8cc'	.	.
8G'L	.	8b'	.	.
8G'	.	8b'J	.	.
8GG'	.	.	.	.
8GG'J	8g'L	.	.	.
.	8g'	.	16eeLL	.
.	.	.	16gg	.
.	8f'	.	16ee	.
.	.	.	16ccJJ	.
.	8f'J	.	16ddLL	.
.	.	.	16ff	.
.	.	.	16dd	.
.	.	.	16bJJ	.
=209	=209	=209	=209	=209
.	.	8cc'	.	.
.	.	(8gL	.	.
16CCLL	.	8f#X	.	.
16C	.	.	.	.
16CC	.	8gJ)	.	.
16CJJ	.	.	.	.
16CCLL	.	.	.	.
16C	.	.	.	.
16CC	8e'	.	.	.
16CJJ	.	.	.	.
.	(8eL	.	4cc	.
.	8d#X	.	.	.
.	8eJ)	.	4r	.
=210	=210	=210	=210	=210
.	.	8g#X'	.	.
.	.	4a^	.	.
16CCLL	.	.	.	.
16C	.	.	.	.
16CC	.	[8gn^	.	.
16CJJ	.	.	.	.
16CCLL	.	.	.	.
16C	.	.	.	.
16CC	8e'	.	.	.
16CJJ	.	.	.	.
.	4f^	.	2r	.
.	[8e^	.	.	.
=211	=211	=211	=211	=211
.	.	8g]	.	.
.	.	4f^	.	.
16CCLL	.	.	.	.
16C	.	.	.	.
16CC	.	8e'	.	.
16CJJ	.	.	.	.
16CCLL	.	.	.	.
16C	.	.	.	.
16CC	8e]	.	.	.
16CJJ	.	.	.	.
.	4d^	.	2r	.
.	8c'	.	.	.
=212	=212	=212	=212	=212
.	.	8dL	.	.
.	.	8d	.	.
[2CC	.	8d	.	.
.	.	8dJ	.	.
.	8BL	.	.	.
.	8B	.	8r	.
.	8B	.	(8ffL	.
.	8BJ	.	8ee	.
.	.	.	8ffJ)	.
=213	=213	=213	=213	=213
.	.	8dL	.	.
.	.	8d	.	.
2CC_	.	8d	.	.
.	.	8dJ	.	.
.	8BL	.	.	.
.	8B	.	8ff#X'	.
.	8B	.	4gg^	.
.	8BJ	.	.	.
.	.	.	[8ffn^	.
=214	=214	=214	=214	=214
.	.	8dL	.	.
.	.	8d	.	.
2CC]	.	8d	.	.
.	.	8dJ	.	.
.	8BL	.	.	.
.	8B	.	8ff]	.
.	8B	.	4ee^	.
.	8BJ	.	.	.
.	.	.	8dd'	.
=215	=215	=215	=215	=215
.	.	8e'L	.	.
.	.	(8g	.	.
16CCLL	.	8f#X	.	.
16C	.	.	.	.
16CC	.	8gJ)	.	.
16CJJ	.	.	.	.
16CCLL	.	.	.	.
16C	.	.	.	.
16CC	8c'L	.	.	.
16CJJ	.	.	.	.
.	(8e	.	4cc	.
.	8d#X	.	.	.
.	8eJ)	.	4r	.
=216	=216	=216	=216	=216
.	.	8g#X'	.	.
.	.	4a^	.	.
16CCLL	.	.	.	.
16C	.	.	.	.
16CC	.	[8gn^	.	.
16CJJ	.	.	.	.
16CCLL	.	.	.	.
16C	.	.	.	.
16CC	8e'	.	.	.
16CJJ	.	.	.	.
.	4f^	.	2r	.
.	[8e^	.	.	.
=217	=217	=217	=217	=217
.	.	8g]	.	.
.	.	4f^	.	.
16CCLL	.	.	.	.
16C	.	.	.	.
16CC	.	8e'	.	.
16CJJ	.	.	.	.
16CCLL	.	.	.	.
16C	.	.	.	.
16CC	8e]	.	.	.
16CJJ	.	.	.	.
.	4d^	.	2r	.
.	8c'	.	.	.
=218	=218	=218	=218	=218
.	.	8d'L	.	.
.	.	8d'	.	.
[2CC	.	8d'	.	.
.	.	8d'J	.	.
.	8B'L	.	.	.
.	8B'	.	8r	.
.	8B'	.	(8ffL	.
.	8B'J	.	8ee	.
.	.	.	8ffJ)	.
=219	=219	=219	=219	=219
.	.	8dL	.	.
.	.	8d	.	.
2CC_	.	8d	.	.
.	.	8dJ	.	.
.	8BL	.	.	.
.	8B	.	8ff#X'	.
.	8B	.	4gg^	.
.	8BJ	.	.	.
.	.	.	[8ffn^	.
=220	=220	=220	=220	=220
.	.	8dL	.	.
.	.	8d	.	.
2CC_	.	8d	.	.
.	.	8dJ	.	.
.	8BL	.	.	.
.	8B	.	8ff]	.
.	8B	.	4ee^	.
.	8BJ	.	.	.
.	.	.	8dd'	.
=221	=221	=221	=221	=221
.	.	8e'L	.	.
.	.	8g	.	.
4CC]	.	8f#X	.	.
.	.	8gJ	.	.
4r	.	.	.	.
.	8c'L	.	.	.
.	8e	.	16ccLL	.
.	.	.	16ccc	.
.	8d#X	.	16cc	.
.	.	.	16cccJJ	.
.	8eJ	.	16ccLL	.
.	.	.	16ccc	.
.	.	.	16cc	.
.	.	.	16cccJJ	.
=222	=222	=222	=222	=222
.	.	8g#X'	.	.
.	.	4a^	.	.
2r	.	.	.	.
.	.	[8gn	.	.
.	8e'	.	.	.
.	4f^	.	16ccLL	.
.	.	.	16ccc	.
.	.	.	16cc	.
.	.	.	16cccJJ	.
.	(8e	.	16ccLL	.
.	.	.	16ccc	.
.	.	.	16cc	.
.	.	.	16cccJJ	.
=223	=223	=223	=223	=223
.	.	8a	.	.
.	.	4b-X	.	.
2r	.	.	.	.
.	.	[8a^	.	.
.	8f)	.	.	.
.	4g	.	16ccLL	.
.	.	.	16ccc	.
.	.	.	16cc	.
.	.	.	16cccJJ	.
.	[8f^	.	16ccLL	.
.	.	.	16ccc	.
.	.	.	16cc	.
.	.	.	16cccJJ	.
=224	=224	=224	=224	=224
.	.	8a]	.	.
.	.	4g^	.	.
4r	.	.	.	.
.	.	8b-X'	.	.
8r	.	.	.	.
8C'	8f]	.	.	.
.	4e^	.	16ccLL	.
.	.	.	16ccc	.
.	.	.	16cc	.
.	.	.	16cccJJ	.
.	8g'	.	16ccLL	.
.	.	.	16ccc	.
.	.	.	16cc	.
.	.	.	16cccJJ	.
=225	=225	=225	=225	=225
.	.	8a'	.	.
.	.	(8aL	.	.
[2F	.	8g#X	.	.
.	.	8aJ)	.	.
.	[2c	.	.	.
.	.	.	8ccL	.
.	.	.	8cccJ	.
.	.	.	8bbL	.
.	.	.	8cccJ	.
=226	=226	=226	=226	=226
.	.	4f	.	.
4F]	.	4A	.	.
4E	.	.	.	.
.	4c]	.	.	.
.	.	.	8aa'L	.
.	4c#X	.	(8aa	.
.	.	.	8gg#X	.
.	.	.	8aaJ)	.
=227	=227	=227	=227	=227
.	.	2A	.	.
4D^	.	.	.	.
4E^	.	.	.	.
.	4d^	.	.	.
.	.	.	8ggn'	.
.	4c#X^	.	4ff^	.
.	.	.	[8ee^	.
=228	=228	=228	=228	=228
.	.	(2A	.	.
4F^	.	.	.	.
4F#X^	.	.	.	.
.	[2dn	.	.	.
.	.	.	8ee]	.
.	.	.	4dd^	.
.	.	.	(8cc	.
=229	=229	=229	=229	=229
.	.	4B)	.	.
(8qG/	.	.	.	.
[2GG)	.	4r	.	.
.	4d]	.	.	.
.	.	.	8b)	.
.	4r	.	(8ggL	.
.	.	.	8ff#X	.
.	.	.	8ggJ)	.
=230	=230	=230	=230	=230
.	.	8r	.	.
.	.	(8eL	.	.
2GG_	.	8d	.	.
.	.	8eJ)	.	.
.	8r	.	.	.
.	(8cL	.	8gg#X'	.
.	8B	.	4aa^	.
.	8c#XJ)	.	.	.
.	.	.	[8ggn^	.
=231	=231	=231	=231	=231
.	.	4f	.	.
2GG_	.	4g	.	.
.	4d	.	.	.
.	.	.	8gg]	.
.	4e	.	4ff^	.
.	.	.	[8ee^	.
=232	=232	=232	=232	=232
.	.	4a^	.	.
2GG_	.	8g'L	.	.
.	.	8f'J	.	.
.	4f^	.	.	.
.	.	.	8eeL]	.
.	8e'L	.	(8dd	.
.	8d'J	.	8ee	.
.	.	.	8ffJ)	.
=233	=233	=233	=233	=233
.	.	(8eL	.	.
.	.	8d	.	.
2GG_	.	8c	.	.
.	.	8dJ)	.	.
.	(8cL	.	.	.
.	8B	.	8ff#X'	.
.	8A	.	4gg^	.
.	8BJ)	.	.	.
.	.	.	[8ffn^	.
=234	=234	=234	=234	=234
.	.	4e^	.	.
2GG_	.	4f^	.	.
.	4c^	.	.	.
.	.	.	8ff]	.
.	4d^	.	4ee^	.
.	.	.	[8dd^	.
=235	=235	=235	=235	=235
.	.	4g^	.	.
2GG_	.	8f'L	.	.
.	.	8e'J	.	.
.	4e^	.	.	.
.	.	.	8ddL]	.
.	8d'L	.	(8cc	.
.	8c'J	.	8dd	.
.	.	.	8eeJ)	.
=236	=236	=236	=236	=236
.	.	8d'	.	.
.	.	4c	.	.
2GG_	.	.	.	.
.	.	([8e-X	.	.
.	8B'	.	.	.
.	4A	.	(8ggL	.
.	.	.	8ff#X)	.
.	[8c	.	8ccc	.
.	.	.	8ff#J	.
=237	=237	=237	=237	=237
.	.	8e-L]	.	.
.	.	8dJ)	.	.
8GG]	.	4r	.	.
(8GL	.	.	.	.
8F#X	.	.	.	.
8GJ)	8c]	.	.	.
.	(8BL	.	(8aaL	.
.	8A	.	8ggJ)	.
.	8BJ)	.	4r	.
=238	=238	=238	=238	=238
.	.	8r	.	.
.	.	(8eeL	.	.
8G#X'	.	8dd	.	.
4A^	.	8eeJ)	.	.
[8Gn^	8B'	.	.	.
.	4c^	.	8r	.
.	.	.	(8cccL	f
.	[8B-X^	.	8bb	.
.	.	.	8ccc#XJ)	.
=239	=239	=239	=239	=239
.	.	4ff^	.	.
8G]	.	4gg^	.	.
4F^	.	.	.	.
[8E^	8B-]	.	.	.
.	4A^	.	4ddd^	.
.	[8G^	.	4eee^	.
=240	=240	=240	=240	=240
.	.	4aa^	.	.
8EL]	.	8gg'L	.	.
(8DJ	.	8ff'J	.	.
8EL	.	.	.	.
8FJ)	8GL]	.	.	.
.	(8F	.	4fffn^	.
.	8G	.	.	.
.	8AJ)	.	8eee'L	.
.	.	.	8ddd'J	.
=241	=241	=241	=241	=241
.	.	(8eeL	.	.
.	.	8dd	.	.
8F#X'	.	8cc	.	.
4G^	.	8ddJ)	.	.
8Fn^	8A'	.	.	.
.	4Bn^	.	(8cccnL	.
.	.	.	8bb	.
.	[8A-X^	.	8aa	.
.	.	.	8bbJ)	.
=242	=242	=242	=242	=242
.	.	4ee^	.	.
8F^	.	4ff^	.	.
4E^	.	.	.	.
[8D^	8A-]	.	.	.
.	4G^	.	4ccc^	.
.	[8F^	.	4ddd^	.
=243	=243	=243	=243	=243
.	.	4gg^	.	.
8D]	.	8ff'L	.	.
(8CL	.	8ee'J	.	.
8D	.	.	.	.
8EJ)	8FL]	.	.	.
.	(8E	.	4eee^	.
.	8F	.	.	.
.	8GJ)	.	8ddd'L	.
.	.	.	8ccc'J	.
=244	=244	=244	=244	=244
.	.	(8ddL	.	.
.	.	8ccJ)	.	.
4G	.	4r	.	.
4r	.	.	.	.
.	4r	.	.	.
.	.	.	(8bbL	.
.	4r	.	8aaJ)	.
.	.	.	(16fffLL	.
.	.	.	16ddd)	.
.	.	.	(16fff	.
.	.	.	16dddJJ)	.
=245	=245	=245	=245	=245
.	.	4dd 4ff	.	.
4G	.	4r	.	.
4r	.	.	.	.
.	4d 4b	.	.	.
.	.	.	(8.bbL	.
.	4r	.	.	.
.	.	.	16dddJk)	.
.	.	.	(16fffLL	.
.	.	.	16ddd)	.
.	.	.	(16fff	.
.	.	.	16dddJJ)	.
=246	=246	=246	=246	=246
.	.	4dd 4ff	.	.
4G	.	4r	.	.
4r	.	.	.	.
.	4d 4b	.	.	.
.	.	.	(8.bbL	.
.	4r	.	.	.
.	.	.	16dddJk)	.
.	.	.	(16fffLL	.
.	.	.	16ddd)	.
.	.	.	(16fff	.
.	.	.	16dddJJ)	.
=247	=247	=247	=247	=247
.	.	8dd' 8ff	.	.
.	.	8r	.	.
8G'	.	8dd' 8ff	.	.
8r	.	8r	.	.
8G'	.	.	.	.
8r	8d' 8b	.	.	.
.	8r	.	(16bbLL	.
.	.	.	16ddd)	.
.	8d' 8b	.	16fff	.
.	.	.	16dddJJ	.
.	8r	.	(16bbLL	.
.	.	.	16ddd)	.
.	.	.	16fff	.
.	.	.	16dddJJ	.
=248	=248	=248	=248	=248
.	.	4dd 4ff	.	.
4G	.	8r;	.	.
.	.	8r	.	.
8r;	.	.	.	.
8r	4d 4b	.	.	.
.	.	.	4bb	.
.	8r;	.	.	.
.	8r	.	8r;	.
.	.	.	8cc'	.
=249	=249	=249	=249	=249
.	.	4r	.	.
2r	.	8r	.	.
.	.	8c'	.	.
.	4r	.	.	.
.	.	.	(8bL	.
.	8r	.	8cc	.
.	8A'	.	8dd)	.
.	.	.	8ff'J	.
=250	=250	=250	=250	=250
.	.	(8BL	.	.
.	.	8c	.	.
2r	.	8d)	.	.
.	.	8f'J	.	.
.	(8G#XL	.	.	.
.	8A	.	4ee	.
.	8B)	.	.	.
.	8d'J	.	8r	.
.	.	.	8b'	.
=251	=251	=251	=251	=251
.	.	4e	.	.
2r	.	8r	.	.
.	.	8B'	.	.
.	4c	.	.	.
.	.	.	(8aL	.
.	8r	.	8b	.
.	8Gn'	.	8cc)	.
.	.	.	8ee'J	.
=252	=252	=252	=252	=252
.	.	(8AL	.	.
.	.	8B	.	.
2r	.	8c)	.	.
.	.	8f#X'J	.	.
.	(8F#XL	.	.	.
.	8G	.	4dd	.
.	8A)	.	.	.
.	8c'J	.	8r	.
.	.	.	8a'	.
=253	=253	=253	=253	=253
.	.	4g	.	.
2r	.	8r	.	.
.	.	8f#X'	.	.
.	4B	.	.	.
.	.	.	(8gL	.
.	4r	.	8a	.
.	.	.	8b)	.
.	.	.	8a'J	.
=254	=254	=254	=254	=254
.	.	(8gL	.	.
.	.	8a	.	.
2r	.	8b)	.	.
.	.	8a#X'J	.	.
.	2r	.	.	.
.	.	.	(8bL	.
.	.	.	8cc	.
.	.	.	8dd)	.
.	.	.	8cc#X'J	.
=255	=255	=255	=255	=255
.	.	(8bL	.	.
.	.	8cc	.	.
2r	.	8dd)	.	.
.	.	8b'J	.	.
.	4r	.	.	.
.	.	.	(8ddL	.
.	8r	.	8ee	.
.	8g'	.	8ff)	.
.	.	.	8ff'J	.
=256	=256	=256	=256	=256
.	.	4cc	.	.
4r	.	4r	.	.
8r	.	.	.	.
8d'	4c	.	.	.
.	.	.	(8eeL	.
.	8r	.	8ff	.
.	8f'	.	8gg)	.
.	.	.	8bb-X'J	.
=257	=257	=257	=257	=257
.	.	4r	.	.
(8c#XL	.	8r	.	.
8d	.	8cc#X'	.	.
8e)	.	.	.	.
8g'J	(8eL	.	.	.
.	8f	.	4aa	.
.	8g)	.	.	.
.	8b-X'J	.	8r	.
.	.	.	8ee'	.
=258	=258	=258	=258	=258
.	.	4ddn	.	.
4f	.	4r	.	.
8r	.	.	.	.
8cn	4a	.	.	.
.	.	.	(8ddL	.
.	8r	.	8ee	.
.	8e	.	8ff)	.
.	.	.	8aaJ	.
=259	=259	=259	=259	=259
.	.	4r	.	.
(8BL	.	8r	.	.
8c	.	8b'	.	.
8d)	.	.	.	.
8f'J	(8dL	.	.	.
.	8e	.	4gg	.
.	8f)	.	.	.
.	8a-X'J	.	8r	.
.	.	.	8dd'	.
=260	=260	=260	=260	=260
.	.	4cc	.	.
4e	.	8r	.	.
.	.	8e'	.	.
8r	.	.	.	.
8C'	4g	.	.	.
.	.	.	(8ccL	.
.	8r	.	8dd	.
.	8g'	.	8ee)	.
.	.	.	8gg'J	.
=261	=261	=261	=261	=261
.	.	4a	.	.
4F	.	8r	.	.
.	.	8a'	.	.
8r	.	.	.	.
8F#X'	4an	.	.	.
.	.	.	(8ffL	.
.	8r	.	8ee	.
.	8d'	.	8dd)	.
.	.	.	8cc'J	.
=262	=262	=262	=262	=262
.	.	4d	.	.
4G	.	8r	.	.
.	.	8e'	.	.
8r	.	.	.	.
8c'	4d	.	.	.
.	.	.	(8bL	.
.	8r	.	8ee)	.
.	8g'	.	8dd'	.
.	.	.	8cc'J	.
=263	=263	=263	=263	=263
!	!	!LO:TX:b:i:t=stacc.	!	!
.	.	8f'L	.	.
.	.	8e'	.	.
!LO:TX:b:i:t=stacc.	!	!	!	!
8d'L	.	8d'	.	.
8c'	.	8b'J	.	.
8B'	.	.	.	.
!	!LO:TX:b:i:t=stacc.	!	!	!
8G'J	8d'L	.	.	.
!	!	!	!LO:TX:b:i:t=stacc.	!
.	8e'	.	8b'L	.
.	8f'	.	8cc'	.
.	8d'J	.	8dd'	.
.	.	.	8ff'J	.
=264	=264	=264	=264	=264
.	.	8cc'L	.	.
.	.	8g'	.	.
8c'L	.	8e'	.	.
8d'	.	8cc'J	.	.
8e'	.	.	.	.
8E'J	8e'L	.	.	.
.	8b'	.	8ee'L	.
.	8cc'	.	8dd'	.
.	8ee'J	.	8cc'	.
.	.	.	8gg#X'J	.
=265	=265	=265	=265	=265
.	.	8a'L	.	.
.	.	8cc#X'	.	.
8F'L	.	8dd'	.	.
8A'	.	8g'J	.	.
8d'	.	.	.	.
8B'J	8cc'L	.	.	.
.	8ee'	.	8aa'L	.
.	8a'	.	8ggn'	.
.	8dd'J	.	8ff'	.
.	.	.	8gg'J	.
=266	=266	=266	=266	=266
.	.	8cc'L	.	.
.	.	8dd'	.	.
8c'L	.	8b'	.	.
8F'	.	8d'J	.	.
8G'	.	.	.	.
8F'J	8g'L	.	.	.
.	8a'	.	8ee'L	.
.	8g'	.	8ff'	.
.	8B'J	.	8dd'	.
.	.	.	8g'J	.
=267	=267	=267	=267	=267
.	.	8g'L	.	.
.	.	8d'	.	.
8E'L	.	8c'	.	.
8F'	.	8b-X'J	.	.
8E'	.	.	.	.
8G'J	8c'L	.	.	.
.	8G'	.	8cc'L	.
.	8g'	.	8b'	.
.	8e'J	.	8cc'	.
.	.	.	8cc#X'J	.
=268	=268	=268	=268	=268
.	.	8a'L	.	.
.	.	8g'	.	.
8F'L	.	8f'	.	.
8E'	.	8a'J	.	.
8D'	.	.	.	.
8F'J	8f'L	.	.	.
.	8g'	.	8dd'L	.
.	8a'	.	8ee'	.
.	8f'J	.	8ff'	.
.	.	.	8dd'J	.
=269	=269	=269	=269	=269
.	.	8f'L	.	.
.	.	8e'	.	.
8G'L	.	8f'	.	.
8GG'	.	8d'J	.	.
8G'	.	.	.	.
8GG'J	8d'L	.	.	.
.	8c'	.	8b'L	.
.	8d'	.	8ccn'J	.
.	8f'J	.	(16bLL	.
.	.	.	16cc	.
.	.	.	16dd	.
.	.	.	16bJJ)	.
=270	=270	=270	=270	=270
.	.	4.G 4.e	.	.
[2CC [2GG	.	.	.	.
.	.	8g'	.	.
.	[2G [2e	.	.	.
.	.	.	8gg'	f
=271	=271	=271	=271	=271
.	.	(8f#XL	.	.
.	.	8g	.	.
2CC_ 2GG_	.	8a	.	.
.	.	8gJ)	.	.
.	2G_ 2e_	.	.	.
.	.	.	(8ff#XL	.
.	.	.	8gg	.
.	.	.	8aa	.
.	.	.	8ggJ)	.
=272	=272	=272	=272	=272
.	.	(16fnLL	.	.
.	.	16e	.	.
.	.	16d	.	.
.	.	16eJJ)	.	.
[2BBB 2GG_	.	8c'L	.	.
.	.	8cc'J	.	.
.	2G_ 2e_	.	.	.
.	.	.	(16ffnLL	.
.	.	.	16ee	.
.	.	.	16dd	.
.	.	.	16eeJJ)	.
.	.	.	8cc'L	.
.	.	.	8ccc'J	.
=273	=273	=273	=273	=273
.	.	8b'L	.	.
.	.	8b-X'	.	.
[2CC 2GG_	.	8a'	.	.
.	.	8a-X'J	.	.
.	2G_ 2e_	.	.	.
.	.	.	8bb'L	.
.	.	.	8bb-X'	.
.	.	.	8aa'	.
.	.	.	8aa-X'J	.
=274	=274	=274	=274	=274
.	.	(16gLL	.	.
.	.	16an	.	.
.	.	16g	.	.
.	.	16f#XJJ)	.	.
2CC_ 2GG_	.	8g'L	.	.
.	.	8g'J	.	.
.	2G_ 2e_	.	.	.
.	.	.	(16ggLL	.
.	.	.	16aan	.
.	.	.	16gg	.
.	.	.	16ff#XJJ)	.
.	.	.	8gg'L	.
.	.	.	8gg'J	.
=275	=275	=275	=275	=275
.	.	(8f#XL	.	.
.	.	8g	.	.
2CC_ 2GG_	.	8a	.	.
.	.	8gJ)	.	.
.	2G_ 2e_	.	.	.
.	.	.	(8ff#XL	.
.	.	.	8gg	.
.	.	.	8aa	.
.	.	.	8ggJ)	.
=276	=276	=276	=276	=276
.	.	(16fnLL	.	.
.	.	16e	.	.
.	.	16d	.	.
.	.	16eJJ)	.	.
2CC_ 2GG_	.	8c'L	.	.
.	.	8e'J	.	.
.	2G] 2e]	.	.	.
.	.	.	(16ffnLL	.
.	.	.	16ee	.
.	.	.	16dd	.
.	.	.	16eeJJ)	.
.	.	.	8cc'L	.
.	.	.	8ee'J	.
=277	=277	=277	=277	=277
.	.	2G 2f	.	.
2CC_ 2GG_	.	.	.	.
.	2F 2G	.	.	.
.	.	.	8dd'L	.
.	.	.	8ff'J	.
.	.	.	(8gL	.
.	.	.	16aL	.
.	.	.	16bJJ)	.
=278	=278	=278	=278	=278
.	.	8G'L 8e	.	.
.	.	8c#X'J	.	.
2CC_ 2GG_	.	8d'L	.	.
.	.	8e'J	.	.
.	2E 2G	.	.	.
.	.	.	8cc'L	.
.	.	.	8cc#X'	.
.	.	.	8dd'	.
.	.	.	8ee'J	.
=279	=279	=279	=279	=279
.	.	2G 2f	.	.
2CC] 2GG]	.	.	.	.
.	2F 2G	.	.	.
.	.	.	8dd'L	.
.	.	.	8ff'J	.
.	.	.	(8gL	.
.	.	.	16aL	.
.	.	.	16bJJ)	.
=280	=280	=280	=280	=280
.	.	8G' 8e	.	.
.	.	4G' 4e	.	.
8CC' 8GG	.	.	.	.
4CC 4GG	.	8G' 8e	.	.
8CC' 8GG	8E' 8G	.	.	.
.	4E' 4G	.	4.e 4.ccn	.
.	8E' 8G	.	.	.
.	.	.	8ee'	.
=281	=281	=281	=281	=281
.	.	8G' 8f	.	.
.	.	4G 4f	.	.
[2CC [2GG	.	.	.	.
.	.	8G' 8f	.	.
.	8F' 8G	.	.	.
.	4F 4G	.	8dd'L	.
.	.	.	8ff'J	.
.	8F' 8G	.	(8gL	.
.	.	.	16aL	.
.	.	.	16bJJ)	.
=282	=282	=282	=282	=282
.	.	8G'L 8e	.	.
.	.	8c#X'J	.	.
2CC] 2GG]	.	8d'L	.	.
.	.	8e'J	.	.
.	8E' 8G	.	.	.
.	4E 4G	.	8cc'L	.
.	.	.	8cc#X'J	.
.	8E' 8G	.	8dd'L	.
.	.	.	8ee'J	.
=283	=283	=283	=283	=283
.	.	8G' 8f	.	.
.	.	4G 4f	.	.
8CC' 8GG	.	.	.	.
4CC 4GG	.	8G' 8f	.	.
8CC' 8GG	8F' 8G	.	.	.
.	4F 4G	.	8dd'L	.
.	.	.	8ff'J	.
.	8F' 8G	.	(8gL	.
.	.	.	16aL	.
.	.	.	16bJJ)	.
=284	=284	=284	=284	=284
.	.	8G' 8e	.	.
.	.	8r	.	.
8CC' 8GG	.	8e' 8cc	.	.
8r	.	8r	.	.
8CC' 8C	.	.	.	.
8r	8E' 8G	.	.	.
.	8r	.	8cc	.
.	8E' 8G	.	8r	.
.	8r	.	8cc' 8ee	.
.	.	.	8r	.
=285	=285	=285	=285	=285
.	.	4e' 4cc	.	.
4CC' 4C	.	8r	.	.
8r	.	.	.	.
.	.	.	4G 4e 4cc	.
.	8r	.	.	.
==	==	==	==	==
*-	*-	*-	*-	*-
!!!system-decoration: s1,s2,s3,s4
